;FLAVOR:Marlin
;TIME:2687
;Filament used: 0m, 2.08534m
;Layer height: 0.2
;MINX:87.374
;MINY:82.001
;MINZ:0.2
;MAXX:152.601
;MAXY:137.971
;MAXZ:32
;Generated with Cura_SteamEngine 4.4.1
T1
M140 S65
M105
M190 S65
M104 S200
M105
M109 S200
M82 ;absolute extrusion mode
G28 ;Home
G1 Z15.0 F6000 ;Move the platform down 15mm
;Prime the extruder
G92 E0
G1 F200 E3
G92 E0
G92 E0
t1
G92 E0
G1 F1500 E-1
;LAYER_COUNT:160
;LAYER:0
M106 S255
G0 F3600 X88.437 Y83.06 Z0.2
;TYPE:SKIRT
G1 F1500 E0
G1 X88.845 Y82.712 E0.01784
G1 X89.301 Y82.428 E0.0357
G1 X89.793 Y82.216 E0.05352
G1 X90.311 Y82.079 E0.07134
G1 X90.906 Y82.019 E0.09123
G1 X91.636 Y82.006 E0.11552
G1 X91.686 Y82.005 E0.11718
G1 X92.727 Y82.001 E0.1518
G1 X92.777 Y82.001 E0.15347
G1 X93.474 Y82.008 E0.17665
G1 X94.009 Y82.053 E0.19451
G1 X94.761 Y82.26 E0.22045
G1 X95.609 Y82.595 E0.25078
G1 X95.657 Y82.614 E0.25249
G1 X96.715 Y83.05 E0.29055
G1 X98.518 Y83.741 E0.35477
G1 X99.817 Y84.224 E0.40087
G1 X100.304 Y84.448 E0.4187
G1 X100.753 Y84.741 E0.43653
G1 X101.153 Y85.098 E0.45436
G1 X101.511 Y85.533 E0.4731
G1 X103.101 Y87.803 E0.56528
G1 X104.716 Y89.993 E0.65578
G1 X106.428 Y92.184 E0.74826
G1 X108.133 Y94.242 E0.83715
G1 X109.944 Y96.307 E0.92851
G1 X111.783 Y98.29 E1.01846
G1 X113.709 Y100.249 E1.10983
G1 X115.656 Y102.12 E1.19964
G1 X117.709 Y103.988 E1.29196
G1 X119.765 Y105.753 E1.38208
G1 X121.874 Y107.461 E1.47235
G1 X124.029 Y109.108 E1.56256
G1 X126.264 Y110.72 E1.65421
G1 X128.507 Y112.242 E1.74437
G1 X130.812 Y113.713 E1.83532
G1 X133.148 Y115.113 E1.9259
G1 X135.52 Y116.444 E2.01636
G1 X137.942 Y117.714 E2.10732
G1 X140.369 Y118.901 E2.19718
G1 X142.879 Y120.041 E2.28887
G1 X145.391 Y121.098 E2.37951
G1 X148.201 Y122.183 E2.4797
G1 X148.557 Y122.314 E2.49232
G1 X149.045 Y122.537 E2.51016
G1 X149.495 Y122.829 E2.528
G1 X149.896 Y123.185 E2.54584
G1 X150.24 Y123.596 E2.56367
G1 X150.417 Y123.867 E2.57443
G1 X150.52 Y124.042 E2.58119
G1 X150.77 Y124.558 E2.60026
G1 X151.767 Y127.11 E2.69138
G1 X152.113 Y127.934 E2.72111
G1 X152.136 Y127.99 E2.72312
G1 X152.351 Y128.527 E2.74236
G1 X152.513 Y129.038 E2.76019
G1 X152.597 Y129.568 E2.77804
G1 X152.601 Y130.104 E2.79587
G1 X152.508 Y130.71 E2.81626
G1 X152.339 Y131.41 E2.84021
G1 X152.325 Y131.469 E2.84223
G1 X151.738 Y133.732 E2.91998
G1 X151.531 Y134.565 E2.94853
G1 X151.519 Y134.612 E2.95015
G1 X151.342 Y135.286 E2.97332
G1 X151.167 Y135.794 E2.99119
G1 X150.92 Y136.269 E3.009
G1 X150.604 Y136.703 E3.02686
G1 X150.227 Y137.084 E3.04468
G1 X149.798 Y137.406 E3.06252
G1 X149.326 Y137.66 E3.08035
G1 X148.821 Y137.841 E3.09819
G1 X148.295 Y137.946 E3.11603
G1 X147.759 Y137.971 E3.13388
G1 X147.004 Y137.869 E3.15922
G1 X146.33 Y137.704 E3.1823
G1 X146.281 Y137.691 E3.18399
G1 X145.172 Y137.403 E3.2221
G1 X145.102 Y137.384 E3.22451
G1 X143.147 Y136.834 E3.29206
G1 X143.074 Y136.813 E3.29458
G1 X142.078 Y136.51 E3.32921
G1 X142.019 Y136.492 E3.33126
G1 X140.434 Y135.98 E3.38666
G1 X140.377 Y135.961 E3.38866
G1 X139.291 Y135.59 E3.42683
G1 X139.232 Y135.569 E3.42891
G1 X137.574 Y134.97 E3.48754
G1 X137.517 Y134.949 E3.48956
G1 X136.413 Y134.529 E3.52885
G1 X136.355 Y134.506 E3.53093
G1 X134.831 Y133.896 E3.58552
G1 X134.772 Y133.872 E3.58764
G1 X133.568 Y133.365 E3.63109
G1 X133.542 Y133.354 E3.63203
G1 X132.787 Y133.029 E3.65937
G1 X132.723 Y133.001 E3.6617
G1 X132.185 Y132.757 E3.68134
G1 X132.163 Y132.746 E3.68216
G1 X130.866 Y132.147 E3.72968
G1 X130.83 Y132.131 E3.73099
G1 X129.931 Y131.704 E3.76409
G1 X129.878 Y131.678 E3.76605
G1 X129.45 Y131.466 E3.78194
G1 X129.427 Y131.454 E3.7828
G1 X128.364 Y130.918 E3.8224
G1 X128.309 Y130.89 E3.82445
G1 X126.786 Y130.089 E3.88169
G1 X126.738 Y130.064 E3.88349
G1 X125.548 Y129.415 E3.92857
G1 X125.515 Y129.396 E3.92984
G1 X124.714 Y128.948 E3.96036
G1 X124.655 Y128.915 E3.96261
G1 X124.227 Y128.665 E3.9791
G1 X124.204 Y128.651 E3.97999
G1 X122.888 Y127.869 E4.03091
G1 X122.853 Y127.848 E4.03226
G1 X122.082 Y127.378 E4.0623
G1 X122.034 Y127.348 E4.06418
G1 X121.581 Y127.062 E4.082
G1 X121.557 Y127.047 E4.08294
G1 X120.542 Y126.395 E4.12306
G1 X120.494 Y126.363 E4.12498
G1 X119.119 Y125.448 E4.17991
G1 X119.067 Y125.413 E4.182
G1 X117.913 Y124.616 E4.22865
G1 X117.861 Y124.579 E4.23077
G1 X116.435 Y123.556 E4.28914
G1 X116.386 Y123.52 E4.29116
G1 X115.424 Y122.805 E4.33103
G1 X115.395 Y122.784 E4.33222
G1 X114.728 Y122.278 E4.36006
G1 X114.676 Y122.238 E4.36225
G1 X114.195 Y121.859 E4.38261
G1 X114.175 Y121.843 E4.38347
G1 X113.268 Y121.118 E4.42209
G1 X113.221 Y121.08 E4.4241
G1 X111.998 Y120.068 E4.47689
G1 X111.954 Y120.03 E4.47883
G1 X110.859 Y119.094 E4.52674
G1 X110.812 Y119.054 E4.52879
G1 X109.553 Y117.94 E4.58471
G1 X109.507 Y117.899 E4.58676
G1 X108.602 Y117.07 E4.62758
G1 X108.572 Y117.041 E4.62896
G1 X107.836 Y116.351 E4.66252
G1 X107.792 Y116.31 E4.66452
G1 X107.433 Y115.962 E4.68115
G1 X107.41 Y115.939 E4.68223
G1 X106.578 Y115.118 E4.72111
G1 X106.54 Y115.08 E4.72289
G1 X105.402 Y113.923 E4.77687
G1 X105.358 Y113.878 E4.77896
G1 X103.818 Y112.256 E4.85335
G1 X103.756 Y112.189 E4.85639
G1 X103.276 Y111.657 E4.88022
G1 X103.251 Y111.628 E4.8815
G1 X102.206 Y110.445 E4.934
G1 X102.185 Y110.421 E4.93506
G1 X101.759 Y109.93 E4.95668
G1 X101.717 Y109.881 E4.95882
G1 X101.209 Y109.274 E4.98515
G1 X101.193 Y109.254 E4.986
G1 X100.285 Y108.153 E5.03347
G1 X100.265 Y108.129 E5.03451
G1 X99.821 Y107.581 E5.05796
G1 X99.781 Y107.531 E5.06009
G1 X99.396 Y107.038 E5.0809
G1 X99.372 Y107.007 E5.0822
G1 X98.059 Y105.288 E5.15415
G1 X98.011 Y105.224 E5.15681
G1 X97.54 Y104.578 E5.1834
G1 X97.519 Y104.549 E5.18459
G1 X96.74 Y103.458 E5.22918
G1 X96.721 Y103.43 E5.2303
G1 X96.208 Y102.697 E5.26006
G1 X96.174 Y102.649 E5.26202
G1 X95.851 Y102.171 E5.2812
G1 X95.833 Y102.144 E5.28228
G1 X95.196 Y101.183 E5.32063
G1 X95.165 Y101.136 E5.3225
G1 X94.276 Y99.748 E5.37733
G1 X94.245 Y99.698 E5.37928
G1 X93.548 Y98.57 E5.42338
G1 X93.516 Y98.516 E5.42547
G1 X92.595 Y96.965 E5.48547
G1 X92.561 Y96.907 E5.4877
G1 X92 Y95.921 E5.52544
G1 X91.971 Y95.868 E5.52744
G1 X91.138 Y94.345 E5.58518
G1 X91.108 Y94.291 E5.58724
G1 X90.581 Y93.287 E5.62495
G1 X90.552 Y93.229 E5.62711
G1 X89.768 Y91.667 E5.68524
G1 X89.74 Y91.611 E5.68732
G1 X89.246 Y90.583 E5.72525
G1 X89.221 Y90.529 E5.72723
G1 X88.488 Y88.936 E5.78556
G1 X88.462 Y88.88 E5.78761
G1 X87.949 Y87.713 E5.83001
G1 X87.933 Y87.674 E5.83141
G1 X87.658 Y87.028 E5.85476
G1 X87.485 Y86.52 E5.87261
G1 X87.39 Y85.993 E5.89042
G1 X87.374 Y85.457 E5.90826
G1 X87.438 Y84.924 E5.92611
G1 X87.58 Y84.407 E5.94394
G1 X87.797 Y83.917 E5.96177
G1 X88.085 Y83.464 E5.97962
G1 X88.437 Y83.06 E5.99744
G0 F3600 X88.889 Y83.187
G1 F1500 X89.298 Y82.89 E6.01426
G1 X89.748 Y82.66 E6.03106
G1 X90.229 Y82.505 E6.04787
G1 X90.913 Y82.419 E6.0708
G1 X91.643 Y82.406 E6.09509
G1 X91.688 Y82.405 E6.09658
G1 X92.729 Y82.401 E6.13121
G1 X92.773 Y82.401 E6.13267
G1 X93.47 Y82.408 E6.15585
G1 X93.974 Y82.453 E6.17268
G1 X94.614 Y82.632 E6.19479
G1 X95.462 Y82.967 E6.22511
G1 X95.505 Y82.984 E6.22665
G1 X96.561 Y83.419 E6.26464
G1 X98.408 Y84.127 E6.33043
G1 X99.677 Y84.599 E6.37546
G1 X100.136 Y84.812 E6.39229
G1 X100.555 Y85.094 E6.40909
G1 X100.924 Y85.439 E6.42589
G1 X101.183 Y85.762 E6.43966
G1 X102.771 Y88.03 E6.53175
G1 X104.424 Y90.271 E6.62436
G1 X106.089 Y92.401 E6.71429
G1 X107.823 Y94.495 E6.80471
G1 X109.652 Y96.58 E6.89696
G1 X111.505 Y98.578 E6.98759
G1 X113.411 Y100.517 E7.07802
G1 X115.392 Y102.422 E7.16943
G1 X117.443 Y104.286 E7.26161
G1 X119.502 Y106.054 E7.35188
G1 X121.62 Y107.77 E7.44254
G1 X123.821 Y109.452 E7.53468
G1 X126.027 Y111.044 E7.62516
G1 X128.273 Y112.567 E7.71542
G1 X130.597 Y114.05 E7.80711
G1 X132.942 Y115.455 E7.89803
G1 X135.345 Y116.803 E7.98968
G1 X137.745 Y118.062 E8.07982
G1 X140.221 Y119.273 E8.17149
G1 X142.724 Y120.41 E8.26293
G1 X145.229 Y121.464 E8.35332
G1 X148.092 Y122.57 E8.4554
G1 X148.419 Y122.69 E8.46699
G1 X148.878 Y122.901 E8.48379
G1 X149.298 Y123.183 E8.50061
G1 X149.669 Y123.526 E8.51742
G1 X150.072 Y124.07 E8.53994
G1 X150.175 Y124.245 E8.54669
G1 X150.398 Y124.704 E8.56366
G1 X151.405 Y127.283 E8.65575
G1 X151.744 Y128.089 E8.68483
G1 X151.765 Y128.139 E8.68663
G1 X151.98 Y128.676 E8.70587
G1 X152.13 Y129.158 E8.72266
G1 X152.202 Y129.659 E8.7395
G1 X152.195 Y130.164 E8.7563
G1 X152.12 Y130.616 E8.77153
G1 X151.951 Y131.316 E8.79549
G1 X151.937 Y131.368 E8.79728
G1 X151.358 Y133.599 E8.87394
G1 X151.359 Y133.599 E8.87397
G1 X151.143 Y134.469 E8.90379
G1 X151.132 Y134.511 E8.90523
G1 X150.955 Y135.185 E8.92841
G1 X150.788 Y135.662 E8.94522
G1 X150.549 Y136.107 E8.96202
G1 X150.242 Y136.509 E8.97884
G1 X149.876 Y136.857 E8.99564
G1 X149.459 Y137.144 E9.01248
G1 X149.002 Y137.361 E9.0293
G1 X148.517 Y137.504 E9.04612
G1 X148.016 Y137.568 E9.06292
G1 X147.511 Y137.553 E9.07972
G1 X147.099 Y137.48 E9.09364
G1 X146.425 Y137.315 E9.11672
G1 X146.382 Y137.304 E9.11819
G1 X145.273 Y137.016 E9.1563
G1 X145.21 Y136.999 E9.15847
G1 X143.255 Y136.449 E9.22602
G1 X143.191 Y136.43 E9.22824
G1 X142.195 Y136.127 E9.26287
G1 X142.142 Y136.111 E9.26471
G1 X140.557 Y135.599 E9.32011
G1 X140.507 Y135.582 E9.32187
G1 X139.421 Y135.211 E9.36004
G1 X139.368 Y135.193 E9.3619
G1 X137.71 Y134.594 E9.42053
G1 X137.659 Y134.575 E9.42234
G1 X136.555 Y134.155 E9.46163
G1 X136.504 Y134.135 E9.46345
G1 X134.98 Y133.525 E9.51805
G1 X134.927 Y133.503 E9.51996
G1 X133.723 Y132.996 E9.56341
G1 X133.7 Y132.986 E9.56424
G1 X132.945 Y132.661 E9.59158
G1 X132.888 Y132.636 E9.59365
G1 X132.35 Y132.392 E9.6133
G1 X132.33 Y132.383 E9.61403
G1 X131.033 Y131.784 E9.66155
G1 X131.002 Y131.77 E9.66268
G1 X130.103 Y131.343 E9.69578
G1 X130.056 Y131.32 E9.69752
G1 X129.628 Y131.108 E9.71341
G1 X129.607 Y131.097 E9.71419
G1 X128.544 Y130.561 E9.75379
G1 X128.495 Y130.536 E9.75562
G1 X126.972 Y129.735 E9.81285
G1 X126.93 Y129.712 E9.81445
G1 X125.74 Y129.063 E9.85953
G1 X125.71 Y129.047 E9.86066
G1 X124.909 Y128.599 E9.89118
G1 X124.857 Y128.569 E9.89318
G1 X124.429 Y128.319 E9.90967
G1 X124.408 Y128.307 E9.91047
G1 X123.092 Y127.525 E9.96139
G1 X123.061 Y127.506 E9.9626
G1 X122.29 Y127.036 E9.99263
G1 X122.248 Y127.01 E9.99427
G1 X121.795 Y126.724 E10.01209
G1 X121.774 Y126.71 E10.01293
G1 X120.759 Y126.058 E10.05305
G1 X120.715 Y126.03 E10.05479
G1 X119.34 Y125.115 E10.10972
G1 X119.294 Y125.084 E10.11157
G1 X118.14 Y124.287 E10.15821
G1 X116.668 Y123.231 E10.21847
G1 X116.624 Y123.199 E10.22028
G1 X115.662 Y122.484 E10.26014
G1 X115.637 Y122.465 E10.26119
G1 X114.97 Y121.959 E10.28903
G1 X114.924 Y121.923 E10.29098
G1 X114.443 Y121.544 E10.31134
G1 X114.425 Y121.531 E10.31208
G1 X113.518 Y120.806 E10.3507
G1 X113.476 Y120.771 E10.35252
G1 X112.253 Y119.759 E10.40532
G1 X112.214 Y119.726 E10.40702
G1 X111.119 Y118.79 E10.45493
G1 X111.077 Y118.755 E10.45675
G1 X109.818 Y117.641 E10.51266
G1 X109.778 Y117.604 E10.51447
G1 X108.873 Y116.775 E10.55529
G1 X108.845 Y116.75 E10.55654
G1 X108.109 Y116.06 E10.5901
G1 X108.071 Y116.023 E10.59186
G1 X107.712 Y115.675 E10.60849
G1 X107.691 Y115.655 E10.60945
G1 X106.859 Y114.834 E10.64833
G1 X106.826 Y114.8 E10.64991
G1 X105.688 Y113.643 E10.70388
G1 X105.648 Y113.602 E10.70579
G1 X104.108 Y111.98 E10.78018
G1 X104.053 Y111.921 E10.78286
G1 X103.573 Y111.389 E10.80669
G1 X103.551 Y111.364 E10.8078
G1 X102.506 Y110.181 E10.8603
G1 X102.487 Y110.159 E10.86127
G1 X102.061 Y109.668 E10.88289
G1 X102.024 Y109.625 E10.88478
G1 X101.516 Y109.018 E10.9111
G1 X101.501 Y109 E10.91188
G1 X100.593 Y107.899 E10.95935
G1 X100.576 Y107.877 E10.96027
G1 X100.132 Y107.329 E10.98373
G1 X100.096 Y107.285 E10.98562
G1 X99.711 Y106.792 E11.00643
G1 X99.69 Y106.764 E11.00759
G1 X98.377 Y105.045 E11.07953
G1 X98.334 Y104.988 E11.08191
G1 X97.863 Y104.342 E11.1085
G1 X97.845 Y104.317 E11.10952
G1 X97.066 Y103.226 E11.15411
G1 X97.048 Y103.201 E11.15514
G1 X96.535 Y102.468 E11.18489
G1 X96.506 Y102.425 E11.18662
G1 X96.183 Y101.947 E11.20581
G1 X96.167 Y101.923 E11.20677
G1 X95.53 Y100.962 E11.24511
G1 X95.502 Y100.92 E11.24679
G1 X94.613 Y99.532 E11.30161
G1 X94.586 Y99.488 E11.30333
G1 X93.889 Y98.36 E11.34743
G1 X93.86 Y98.312 E11.3493
G1 X92.939 Y96.761 E11.40929
G1 X92.909 Y96.709 E11.41129
G1 X92.348 Y95.723 E11.44902
G1 X92.321 Y95.677 E11.4508
G1 X91.488 Y94.154 E11.50853
G1 X91.463 Y94.105 E11.51036
G1 X90.936 Y93.101 E11.54808
G1 X90.909 Y93.049 E11.55003
G1 X90.125 Y91.487 E11.60816
G1 X90.101 Y91.438 E11.60997
G1 X89.607 Y90.41 E11.6479
G1 X89.584 Y90.362 E11.64967
G1 X88.851 Y88.769 E11.708
G1 X88.829 Y88.719 E11.70981
G1 X88.316 Y87.552 E11.75221
G1 X88.301 Y87.517 E11.75348
G1 X88.026 Y86.871 E11.77683
G1 X87.865 Y86.392 E11.79364
G1 X87.782 Y85.893 E11.81046
G1 X87.778 Y85.388 E11.82726
G1 X87.854 Y84.888 E11.84408
G1 X88.008 Y84.406 E11.86091
G1 X88.236 Y83.955 E11.87772
G1 X88.532 Y83.545 E11.89454
G1 X88.889 Y83.187 E11.91136
G1 F1500 E10.91136
G0 F3600 X93.566 Y84.935
G0 X95.435 Y87.79
;TYPE:SUPPORT
G1 F1500 E11.91136
G1 X98.226 Y87.797 E12.00418
G1 X98.175 Y87.878 E12.00737
G1 X98.176 Y93.042 E12.17912
G1 X98.036 Y92.803 E12.18834
G1 X96.689 Y90.317 E12.28238
G1 X95.435 Y87.79 E12.37621
G0 F3600 X95.767 Y88.011
G1 F1500 X97.976 Y88.011 E12.44968
G0 F3600 X96.012 Y87.992
G1 F1500 X96.012 Y88.502 E12.46664
G0 F3600 X97.112 Y90.678
G1 F1500 X97.976 Y90.678 E12.49538
G0 F3600 X143.513 Y124.907
G1 F1500 X143.516 Y124.906 E12.49548
G1 X147.197 Y125.861 E12.62197
G1 X146.405 Y128.856 E12.725
G1 X146.69 Y129.343 E12.74377
G1 X148.805 Y129.903 E12.81654
G1 X148.456 Y131.248 E12.86276
G1 X145.811 Y130.539 E12.95384
G1 X143.112 Y129.712 E13.04773
G1 X142.33 Y129.442 E13.07524
G1 X143.513 Y124.907 E13.23112
G0 F3600 X143.605 Y125.349
G1 F1500 X144.431 Y125.349 E13.2586
G0 F3600 X144.018 Y125.243
G1 F1500 X144.018 Y129.78 E13.4095
G0 F3600 X142.91 Y128.016
G1 F1500 X146.419 Y128.016 E13.52621
G0 F3600 X146.685 Y127.017
G1 F1500 X146.685 Y125.936 E13.56216
G0 F3600 X146.685 Y129.549
G1 F1500 X146.685 Y130.566 E13.59599
G0 F3600 X147.123 Y130.683
G1 F1500 X148.395 Y130.683 E13.63829
G1 F1500 E12.63829
;MESH:Body1.stl
G0 F3600 X96.471 Y90.407
G0 X95.338 Y91.011
G0 X91.957 Y86.259
G0 X91.874 Y86.205
;TYPE:WALL-INNER
G1 F1500 E13.63829
G1 X92.177 Y86.205 E13.64837
G1 X92.178 Y86.204 E13.64842
G1 X93.059 Y86.2 E13.67772
G1 X94.07 Y88.412 E13.75861
G1 X95.355 Y91.002 E13.85478
G1 X96.732 Y93.544 E13.95093
G1 X98.196 Y96.037 E14.04709
G1 X99.748 Y98.477 E14.14327
G1 X101.385 Y100.86 E14.23943
G1 X103.106 Y103.183 E14.33558
G1 X104.909 Y105.444 E14.43177
G1 X106.788 Y107.641 E14.52792
G1 X108.745 Y109.77 E14.6241
G1 X110.776 Y111.828 E14.72027
G1 X112.879 Y113.813 E14.81646
G1 X115.05 Y115.722 E14.91261
G1 X117.286 Y117.554 E15.00875
G1 X119.587 Y119.306 E15.10494
G1 X121.947 Y120.974 E15.20106
G1 X124.365 Y122.559 E15.29722
G1 X126.838 Y124.058 E15.39341
G1 X129.363 Y125.468 E15.4896
G1 X131.935 Y126.788 E15.58575
G1 X134.552 Y128.017 E15.68191
G1 X137.212 Y129.151 E15.77809
G1 X139.908 Y130.192 E15.87421
G1 X142.641 Y131.136 E15.97038
G1 X145.407 Y131.984 E16.0666
G1 X147.693 Y132.597 E16.14532
G1 X147.479 Y133.456 E16.17477
G1 X147.431 Y133.651 E16.18145
G1 X147.237 Y133.601 E16.18574
G1 X145.251 Y133.085 E16.25398
G1 X142.521 Y132.255 E16.34889
G1 X139.824 Y131.333 E16.44369
G1 X137.152 Y130.315 E16.53879
G1 X134.741 Y129.303 E16.62576
G1 X134.282 Y129.099 E16.64246
G1 X132.157 Y128.117 E16.72032
G1 X131.581 Y127.836 E16.74164
G1 X129.51 Y126.791 E16.81879
G1 X127.072 Y125.46 E16.91118
G1 X126.641 Y125.214 E16.92768
G1 X124.632 Y124.019 E17.00543
G1 X124.086 Y123.679 E17.02682
G1 X122.123 Y122.419 E17.10441
G1 X119.595 Y120.672 E17.20661
G1 X117.541 Y119.146 E17.29172
G1 X117.094 Y118.8 E17.31052
G1 X115.278 Y117.347 E17.38787
G1 X112.951 Y115.358 E17.48969
G1 X111.025 Y113.592 E17.5766
G1 X110.61 Y113.195 E17.5957
G1 X108.948 Y111.558 E17.67329
G1 X107.032 Y109.546 E17.7657
G1 X106.655 Y109.137 E17.7842
G1 X105.103 Y107.381 E17.86215
G1 X104.738 Y106.952 E17.88088
G1 X103.253 Y105.151 E17.95852
G1 X102.937 Y104.753 E17.97542
G1 X101.513 Y102.897 E18.05323
G1 X101.212 Y102.492 E18.07001
G1 X99.852 Y100.589 E18.14781
