;FLAVOR:Marlin
;TIME:2593
;Filament used: 0m, 1.97314m
;Layer height: 0.2
;MINX:93.113
;MINY:76.493
;MINZ:0.2
;MAXX:148.85
;MAXY:144.315
;MAXZ:19
;Generated with Cura_SteamEngine 4.4.1
T1
M140 S65
M105
M190 S65
M104 S200
M105
M109 S200
M82 ;absolute extrusion mode
G28 ;Home
G1 Z15.0 F6000 ;Move the platform down 15mm
;Prime the extruder
G92 E0
G1 F200 E3
G92 E0
G92 E0
t1
G92 E0
G1 F1500 E-1
;LAYER_COUNT:95
;LAYER:0
M106 S255
G0 F3600 X94.052 Y86.568 Z0.2
;TYPE:SKIRT
G1 F1500 E0
G1 X94.611 Y86.043 E0.02551
G1 X95.059 Y85.704 E0.04419
G1 X97.249 Y83.996 E0.13657
G1 X99.341 Y82.269 E0.22679
G1 X101.404 Y80.464 E0.31796
G1 X103.387 Y78.629 E0.40782
G1 X104.544 Y77.507 E0.46143
G1 X104.956 Y77.163 E0.47928
G1 X105.415 Y76.885 E0.49713
G1 X105.909 Y76.678 E0.51494
G1 X106.429 Y76.546 E0.53279
G1 X106.963 Y76.493 E0.55064
G1 X107.478 Y76.517 E0.56778
G1 X107.946 Y76.573 E0.58346
G1 X108.028 Y76.584 E0.58621
G1 X109.788 Y76.836 E0.64535
G1 X112.504 Y77.146 E0.73627
G1 X115.221 Y77.378 E0.82696
G1 X117.916 Y77.533 E0.91675
G1 X120.678 Y77.612 E1.00865
G1 X123.371 Y77.614 E1.09822
G1 X126.141 Y77.537 E1.19039
G1 X128.828 Y77.386 E1.2799
G1 X131.563 Y77.155 E1.37119
G1 X133.718 Y76.918 E1.4433
G1 X134.908 Y76.774 E1.48316
G1 X135.443 Y76.749 E1.50098
G1 X135.977 Y76.805 E1.51884
G1 X136.496 Y76.939 E1.53666
G1 X136.99 Y77.148 E1.5545
G1 X137.447 Y77.429 E1.57235
G1 X137.857 Y77.774 E1.59017
G1 X138.211 Y78.177 E1.60801
G1 X138.502 Y78.627 E1.62583
G1 X138.749 Y79.19 E1.64628
G1 X139.079 Y80.161 E1.68039
G1 X139.101 Y80.229 E1.68277
G1 X148.492 Y109.798 E2.71465
G1 X148.505 Y109.841 E2.71614
G1 X148.694 Y110.463 E2.73776
G1 X148.812 Y110.987 E2.75563
G1 X148.85 Y111.522 E2.77347
G1 X148.808 Y112.056 E2.79128
G1 X148.738 Y112.401 E2.80299
G1 X148.656 Y112.722 E2.81401
G1 X148.649 Y112.749 E2.81494
G1 X147.938 Y115.448 E2.90777
G1 X147.316 Y118.103 E2.99847
G1 X146.776 Y120.765 E3.08881
G1 X146.311 Y123.425 E3.17862
G1 X145.912 Y126.166 E3.27075
G1 X145.567 Y129.155 E3.37082
G1 X145.461 Y130.223 E3.40652
G1 X145.4 Y130.617 E3.41978
G1 X145.349 Y130.856 E3.42791
G1 X144.983 Y132.675 E3.48962
G1 X144.974 Y132.722 E3.49121
G1 X144.877 Y133.173 E3.50656
G1 X144.701 Y133.749 E3.52659
G1 X144.507 Y134.236 E3.54402
G1 X143.509 Y136.829 E3.63643
G1 X143.104 Y137.976 E3.67689
G1 X143.087 Y138.022 E3.67852
G1 X142.809 Y138.777 E3.70528
G1 X142.587 Y139.265 E3.72311
G1 X142.295 Y139.715 E3.74096
G1 X141.939 Y140.116 E3.75879
G1 X141.527 Y140.46 E3.77664
G1 X141.069 Y140.739 E3.79448
G1 X140.575 Y140.946 E3.81229
G1 X140.055 Y141.078 E3.83014
G1 X139.528 Y141.132 E3.84776
G1 X138.324 Y141.165 E3.88782
G1 X135.574 Y141.279 E3.97936
G1 X132.885 Y141.467 E4.06902
G1 X130.136 Y141.738 E4.16089
G1 X127.453 Y142.079 E4.25085
G1 X124.768 Y142.497 E4.34123
G1 X122.067 Y142.997 E4.43259
G1 X119.403 Y143.568 E4.52321
G1 X118.19 Y143.869 E4.56477
G1 X118.155 Y143.878 E4.56598
G1 X116.769 Y144.207 E4.61336
G1 X116.008 Y144.303 E4.63887
G1 X115.439 Y144.314 E4.6578
G1 X115.369 Y144.315 E4.66012
G1 X112.532 Y144.315 E4.75448
G1 X111.831 Y144.305 E4.7778
G1 X111.296 Y144.257 E4.79567
G1 X110.775 Y144.131 E4.81349
G1 X110.279 Y143.928 E4.83132
G1 X109.818 Y143.654 E4.84916
G1 X109.402 Y143.315 E4.86701
G1 X109.109 Y143.001 E4.88129
G1 X108.83 Y142.664 E4.89584
G1 X108.664 Y142.447 E4.90493
G1 X107.406 Y140.668 E4.9774
G1 X105.772 Y138.493 E5.06788
G1 X105.239 Y137.802 E5.0969
G1 X104.874 Y137.221 E5.11972
G1 X104.643 Y136.762 E5.13682
G1 X104.613 Y136.701 E5.13908
G1 X104.4 Y136.257 E5.15545
G1 X104.381 Y136.216 E5.15696
G1 X103.957 Y135.303 E5.19044
G1 X103.768 Y134.801 E5.20828
G1 X103.656 Y134.277 E5.2261
G1 X103.625 Y133.923 E5.23792
G1 X103.561 Y132.235 E5.2941
G1 X103.41 Y129.466 E5.38634
G1 X103.183 Y126.739 E5.47735
G1 X102.88 Y124.028 E5.56808
G1 X102.499 Y121.324 E5.65891
G1 X102.047 Y118.655 E5.74894
G1 X101.523 Y116.015 E5.83846
G1 X100.905 Y113.311 E5.93072
G1 X100.223 Y110.669 E6.02147
G1 X99.467 Y108.05 E6.11213
G1 X99.1 Y106.904 E6.15216
G1 X99.085 Y106.856 E6.15383
G1 X98.299 Y104.28 E6.24341
G1 X97.437 Y101.62 E6.33641
G1 X96.315 Y98.496 E6.44681
G1 X95.803 Y97.144 E6.4949
G1 X95.787 Y97.099 E6.49648
G1 X93.56 Y90.975 E6.71322
G1 X93.543 Y90.929 E6.71485
G1 X93.311 Y90.263 E6.73831
G1 X93.173 Y89.745 E6.75614
G1 X93.113 Y89.212 E6.77398
G1 X93.134 Y88.676 E6.79182
G1 X93.233 Y88.149 E6.80965
G1 X93.411 Y87.639 E6.82762
G1 X93.483 Y87.474 E6.83361
G1 X93.734 Y87 E6.85145
G1 X94.052 Y86.568 E6.86929
G0 F3600 X94.394 Y86.785
G1 F1500 X94.852 Y86.362 E6.89002
G1 X95.333 Y85.998 E6.91009
G1 X97.487 Y84.319 E7.00092
G1 X99.61 Y82.565 E7.09251
G1 X101.656 Y80.775 E7.18293
G1 X103.677 Y78.905 E7.27451
G1 X104.823 Y77.794 E7.3276
G1 X105.213 Y77.472 E7.34442
G1 X105.648 Y77.215 E7.36122
G1 X106.119 Y77.031 E7.37804
G1 X106.612 Y76.922 E7.39484
G1 X107.117 Y76.893 E7.41166
G1 X107.43 Y76.915 E7.4221
G1 X107.898 Y76.971 E7.43777
G1 X107.971 Y76.98 E7.44022
G1 X109.757 Y77.235 E7.50022
G1 X112.457 Y77.544 E7.59061
G1 X115.165 Y77.775 E7.68101
G1 X117.915 Y77.933 E7.77263
G1 X120.666 Y78.012 E7.86416
G1 X123.383 Y78.014 E7.95453
G1 X126.137 Y77.937 E8.04616
G1 X128.851 Y77.785 E8.13657
G1 X131.601 Y77.553 E8.22836
G1 X133.79 Y77.312 E8.30161
G1 X134.956 Y77.171 E8.34067
G1 X135.461 Y77.15 E8.35748
G1 X135.963 Y77.209 E8.3743
G1 X136.449 Y77.346 E8.39109
G1 X136.908 Y77.559 E8.40792
G1 X137.328 Y77.84 E8.42473
G1 X137.698 Y78.185 E8.44155
G1 X138.009 Y78.583 E8.45835
G1 X138.254 Y79.026 E8.47519
G1 X138.37 Y79.318 E8.48564
G1 X138.7 Y80.289 E8.51975
G1 X138.72 Y80.35 E8.52189
G1 X148.111 Y109.919 E9.55376
G1 X148.123 Y109.958 E9.55512
G1 X148.312 Y110.58 E9.57674
G1 X148.42 Y111.073 E9.59353
G1 X148.449 Y111.578 E9.61035
G1 X148.35 Y112.302 E9.63466
G1 X148.268 Y112.623 E9.64568
G1 X148.262 Y112.647 E9.6465
G1 X147.556 Y115.327 E9.73868
G1 X146.923 Y118.03 E9.83101
G1 X146.382 Y120.695 E9.92146
G1 X145.915 Y123.365 E10.01161
G1 X145.518 Y126.1 E10.10353
G1 X145.17 Y129.109 E10.20428
G1 X145.063 Y130.183 E10.24018
G1 X145.009 Y130.534 E10.25199
G1 X144.958 Y130.773 E10.26012
G1 X144.591 Y132.596 E10.32197
G1 X144.582 Y132.638 E10.32339
G1 X144.485 Y133.089 E10.33874
G1 X144.33 Y133.601 E10.35653
G1 X144.12 Y134.128 E10.3754
G1 X143.141 Y136.67 E10.466
G1 X142.727 Y137.843 E10.50737
G1 X142.712 Y137.884 E10.50882
G1 X142.434 Y138.639 E10.53558
G1 X142.222 Y139.098 E10.5524
G1 X141.941 Y139.518 E10.56921
G1 X141.597 Y139.888 E10.58601
G1 X141.199 Y140.2 E10.60283
G1 X140.757 Y140.445 E10.61964
G1 X140.282 Y140.618 E10.63645
G1 X139.785 Y140.713 E10.65328
G1 X139.518 Y140.732 E10.66218
G1 X138.299 Y140.765 E10.70274
G1 X135.563 Y140.879 E10.79382
G1 X132.854 Y141.068 E10.88414
G1 X130.083 Y141.341 E10.97675
G1 X127.408 Y141.681 E11.06644
G1 X124.705 Y142.102 E11.15743
G1 X121.982 Y142.607 E11.24954
G1 X119.32 Y143.177 E11.34008
G1 X118.094 Y143.481 E11.38209
G1 X118.063 Y143.488 E11.38315
G1 X116.677 Y143.817 E11.43053
G1 X116 Y143.903 E11.45323
G1 X115.431 Y143.914 E11.47216
G1 X115.369 Y143.915 E11.47422
G1 X112.537 Y143.915 E11.56841
G1 X111.836 Y143.905 E11.59173
G1 X111.333 Y143.858 E11.60853
G1 X110.843 Y143.732 E11.62536
G1 X110.38 Y143.53 E11.64216
G1 X109.953 Y143.258 E11.659
G1 X109.417 Y142.746 E11.68366
G1 X109.138 Y142.409 E11.69821
G1 X108.991 Y142.216 E11.70628
G1 X107.736 Y140.443 E11.77852
G1 X106.064 Y138.215 E11.87117
G1 X105.556 Y137.557 E11.89882
G1 X105.232 Y137.042 E11.91906
G1 X105.001 Y136.583 E11.93615
G1 X104.974 Y136.528 E11.93819
G1 X104.761 Y136.084 E11.95457
G1 X104.744 Y136.048 E11.95589
G1 X104.32 Y135.135 E11.98937
G1 X104.144 Y134.661 E12.00619
G1 X104.044 Y134.165 E12.02302
G1 X104.024 Y133.908 E12.03159
G1 X103.958 Y132.16 E12.08977
G1 X103.81 Y129.447 E12.18014
G1 X103.581 Y126.694 E12.27202
G1 X103.28 Y124.003 E12.36208
G1 X102.895 Y121.268 E12.45395
G1 X102.44 Y118.582 E12.54456
G1 X101.911 Y115.92 E12.63483
G1 X101.285 Y113.178 E12.72837
G1 X100.618 Y110.596 E12.81707
G1 X99.847 Y107.923 E12.9096
G1 X99.481 Y106.782 E12.94945
G1 X99.467 Y106.739 E12.95096
G1 X98.663 Y104.104 E13.04258
G1 X97.824 Y101.517 E13.13304
G1 X96.689 Y98.354 E13.24481
G1 X96.177 Y97.002 E13.29289
G1 X96.163 Y96.963 E13.29427
G1 X93.936 Y90.839 E13.51101
G1 X93.921 Y90.798 E13.51246
G1 X93.689 Y90.132 E13.53592
G1 X93.561 Y89.643 E13.55273
G1 X93.512 Y89.139 E13.56957
G1 X93.542 Y88.635 E13.58636
G1 X93.651 Y88.141 E13.60319
G1 X93.778 Y87.799 E13.61532
G1 X93.85 Y87.634 E13.62131
G1 X94.088 Y87.188 E13.63813
G1 X94.394 Y86.785 E13.65496
G0 F3600 X96.911 Y89.073
;TYPE:SUPPORT
G1 F1500 X97.523 Y88.833 E13.67682
G1 X98.082 Y88.583 E13.69719
G1 X99.023 Y88.114 E13.73216
G1 X99.192 Y88.021 E13.73857
G1 X99.654 Y87.751 E13.75637
G1 X100.603 Y87.147 E13.79378
G1 X101.286 Y86.651 E13.82186
G1 X101.4 Y86.559 E13.82673
G1 X101.54 Y87.521 E13.85907
G1 X101.634 Y88.13 E13.87956
G1 X101.765 Y88.923 E13.90629
G1 X101.988 Y90.166 E13.9483
G1 X102.32 Y91.847 E14.00529
G1 X102.6 Y93.193 E14.05101
G1 X103.062 Y95.26 E14.12146
G1 X103.494 Y97.074 E14.18348
G1 X103.809 Y98.321 E14.22626
G1 X104.214 Y99.823 E14.278
G1 X104.615 Y101.198 E14.32564
G1 X104.996 Y102.409 E14.36786
G1 X105.319 Y103.383 E14.40199
G1 X105.61 Y104.21 E14.43115
G1 X105.787 Y104.695 E14.44832
G1 X106.077 Y105.468 E14.47578
G1 X106.28 Y105.986 E14.49429
G1 X106.796 Y107.24 E14.53939
G1 X107.085 Y107.914 E14.56378
G1 X107.333 Y108.474 E14.58415
G1 X107.885 Y109.67 E14.62796
G1 X108.16 Y110.24 E14.64901
G1 X108.528 Y110.985 E14.67665
G1 X108.898 Y111.716 E14.7039
G1 X109.273 Y112.433 E14.73081
G1 X110.023 Y113.82 E14.78325
G1 X110.772 Y115.148 E14.83396
G1 X111.145 Y115.794 E14.85877
G1 X111.914 Y117.087 E14.90881
G1 X112.263 Y117.65 E14.93084
G1 X111.926 Y117.691 E14.94213
G1 X111.057 Y117.837 E14.97144
G1 X110.196 Y118.027 E15.00077
G1 X109.237 Y118.284 E15.03379
G1 X107.722 Y118.741 E15.08642
G1 X106.454 Y115.287 E15.2088
G1 X105.182 Y111.802 E15.33219
G1 X105.278 Y111.418 E15.34535
G1 X103.741 Y107.229 E15.49376
G1 X103.229 Y106.992 E15.51253
G1 X103.216 Y106.997 E15.51299
G1 X102.57 Y105.231 E15.57554
G1 X102.489 Y104.992 E15.58393
G1 X102.512 Y104.984 E15.58474
G1 X102.752 Y104.473 E15.60352
G1 X99.908 Y96.624 E15.88118
G1 X99.574 Y96.395 E15.89465
G1 X96.911 Y89.073 E16.15379
G0 F3600 X97.707 Y90.678
G1 F1500 X101.885 Y90.678 E16.29275
G0 F3600 X101.416 Y88.011
G1 F1500 X99.606 Y88.011 E16.35295
G0 F3600 X98.679 Y88.508
G1 F1500 X98.679 Y93.349 E16.51396
G0 F3600 X98.677 Y93.345
G1 F1500 X102.429 Y93.345 E16.63876
G0 F3600 X103.036 Y96.012
G1 F1500 X99.647 Y96.012 E16.75147
G0 F3600 X100.865 Y98.679
G1 F1500 X103.698 Y98.679 E16.8457
G0 F3600 X104.013 Y99.848
G1 F1500 X104.013 Y107.389 E17.09652
G0 F3600 X103.313 Y106.68
G1 F1500 X106.35 Y106.68 E17.19753
G0 F3600 X106.68 Y107.476
G1 F1500 X106.68 Y115.321 E17.45845
G0 F3600 X106.445 Y114.681
G1 F1500 X110.279 Y114.681 E17.58597
G0 F3600 X109.347 Y112.991
G1 F1500 X109.347 Y118.048 E17.75417
G0 F3600 X107.423 Y117.348
G1 F1500 X111.841 Y117.348 E17.90111
G0 F3600 X108.828 Y112.014
G1 F1500 X105.472 Y112.014 E18.01273
G0 F3600 X104.731 Y109.347
G1 F1500 X107.516 Y109.347 E18.10536
G0 F3600 X105.33 Y104.013
G1 F1500 X102.797 Y104.013 E18.18961
G0 F3600 X101.831 Y101.346
G1 F1500 X104.453 Y101.346 E18.27682
G0 F3600 X101.346 Y100.005
G1 F1500 X101.346 Y87.576 E18.69021
G1 F1500 E17.69021
G0 F3600 X101.525 Y85.622
G0 X106.604 Y79.58
G0 X107.534 Y79.734
G0 X128.29 Y91.574
G1 F1500 E18.69021
G1 X129.125 Y91.615 E18.71801
G1 X129.51 Y91.157 E18.73791
G1 X129.037 Y89.045 E18.8099
G1 X129.475 Y88.788 E18.82679
G1 X130.228 Y88.295 E18.85673
G1 X130.265 Y88.298 E18.85796
G1 X130.91 Y88.358 E18.87951
G1 X131.643 Y88.471 E18.90417
G1 X131.655 Y88.473 E18.90458
G1 X131.874 Y88.515 E18.91199
G1 X132.413 Y88.638 E18.93038
G1 X133.15 Y88.885 E18.95623
G1 X133.733 Y89.137 E18.97736
G1 X134.207 Y89.427 E18.99584
G1 X134.661 Y89.779 E19.01495
G1 X134.979 Y90.099 E19.02995
G1 X135.313 Y90.549 E19.04859
G1 X135.584 Y90.995 E19.06595
G1 X135.785 Y91.394 E19.08081
G1 X134.344 Y92.616 E19.14365
G1 X134.215 Y93.126 E19.16115
G1 X135.006 Y95.145 E19.23327
G1 X135.536 Y95.672 E19.25813
G1 X135.572 Y96.028 E19.27003
G1 X135.994 Y96.826 E19.30005
G1 X136.007 Y96.902 E19.30262
G1 X136.954 Y99.029 E19.38006
G1 X137.076 Y99.376 E19.39229
G1 X137.248 Y99.92 E19.41127
G1 X137.783 Y102.41 E19.49598
G1 X138.121 Y103.057 E19.52025
G1 X137.829 Y104.896 E19.58219
G1 X138.245 Y105.328 E19.60213
G1 X139.818 Y105.133 E19.65485
G1 X140.34 Y106.319 E19.69795
G1 X140.496 Y106.656 E19.7103
G1 X140.574 Y107.117 E19.72585
G1 X140.616 Y107.584 E19.74145
G1 X140.618 Y108.136 E19.75981
G1 X140.55 Y108.7 E19.7787
G1 X140.464 Y109.063 E19.79111
G1 X140.248 Y109.61 E19.81067
G1 X140.031 Y110.005 E19.82566
G1 X139.935 Y110.16 E19.83172
G1 X139.642 Y110.573 E19.84857
G1 X139.343 Y110.937 E19.86423
G1 X139.269 Y111.018 E19.86788
G1 X139.109 Y111.037 E19.87324
G1 X138.368 Y111.152 E19.89818
G1 X137.682 Y111.279 E19.92139
G1 X136.308 Y109.65 E19.99227
G1 X135.743 Y109.612 E20.0111
G1 X135.072 Y110.219 E20.0412
G1 X128.29 Y91.574 E20.70108
G0 F3600 X129.608 Y90.678
G1 F1500 X135.158 Y90.678 E20.88568
G0 F3600 X133.35 Y89.19
G1 F1500 X133.35 Y104.901 E21.40823
G0 F3600 X133.027 Y104.013
G1 F1500 X137.766 Y104.013 E21.56585
G0 F3600 X138.684 Y105.474
G1 F1500 X138.684 Y110.901 E21.74635
G0 F3600 X140.136 Y109.347
G1 F1500 X134.967 Y109.347 E21.91827
G0 F3600 X136.017 Y109.43
G1 F1500 X136.017 Y97.416 E22.31786
G0 F3600 X136.581 Y98.679
G1 F1500 X131.087 Y98.679 E22.50059
G0 F3600 X130.683 Y97.568
G1 F1500 X130.683 Y88.538 E22.80093
G0 F3600 X129.147 Y93.345
G1 F1500 X134.087 Y93.345 E22.96523
G0 F3600 X135.37 Y96.012
G1 F1500 X130.117 Y96.012 E23.13995
G0 F3600 X132.057 Y101.346
G1 F1500 X137.35 Y101.346 E23.31599
G0 F3600 X140.288 Y106.68
G1 F1500 X133.997 Y106.68 E23.52523
G0 F3600 X136.943 Y125.523
G1 F1500 X140.83 Y125.523 E23.65452
G1 X140.831 Y125.9 E23.66705
G1 X140.831 Y127.221 E23.71099
G1 X141.119 Y127.653 E23.72826
G1 X141.688 Y127.89 E23.74876
G1 X141.687 Y129.747 E23.81052
G1 X141.454 Y129.845 E23.81893
G1 X141.166 Y130.276 E23.83617
G1 X141.166 Y132.223 E23.90093
G1 X140.907 Y132.223 E23.90954
G1 X140.808 Y132.123 E23.91422
G1 X140.336 Y132.122 E23.92992
G1 X140.336 Y132.067 E23.93175
G1 X139.692 Y131.423 E23.96204
G1 X135.445 Y131.423 E24.1033
G1 X134.105 Y131.411 E24.14787
G1 X133.258 Y131.386 E24.17605
G1 X133.258 Y130.524 E24.20472
G1 X135.307 Y130.523 E24.27287
G1 X135.706 Y130.124 E24.29164
G1 X135.71 Y127.963 E24.36352
G1 X136.655 Y127.574 E24.39751
G1 X136.943 Y127.142 E24.41478
G1 X136.943 Y125.523 E24.46862
G0 F3600 X138.684 Y125.723
G1 F1500 X138.684 Y131.223 E24.65155
G0 F3600 X140.966 Y130.683
G1 F1500 X135.429 Y130.683 E24.83572
G0 F3600 X136.017 Y131.223
G1 F1500 X136.017 Y128.053 E24.94115
G0 F3600 X136.105 Y128.016
G1 F1500 X141.472 Y128.016 E25.11966
G0 F3600 X141.351 Y127.967
G1 F1500 X141.351 Y129.672 E25.17637
G1 F1500 E24.17637
G0 F3600 X132.114 Y131.112
G0 X116.183 Y133.815
G1 F1500 E25.17637
G1 X116.183 Y135.758 E25.24099
G1 X116.476 Y136.19 E25.25835
G1 X116.704 Y136.281 E25.26652
G1 X116.704 Y138.16 E25.32901
G1 X116.129 Y138.409 E25.34985
G1 X115.844 Y138.844 E25.36715
G1 X115.848 Y140.515 E25.42273
G1 X111.958 Y140.515 E25.55211
G1 X111.954 Y138.917 E25.60526
G1 X111.669 Y138.483 E25.62253
G1 X110.728 Y138.075 E25.65664
G1 X110.72 Y135.914 E25.72852
G1 X110.32 Y135.515 E25.74731
G1 X108.273 Y135.515 E25.81539
G1 X108.273 Y134.651 E25.84413
G1 X108.853 Y134.632 E25.86343
G1 X109.663 Y134.618 E25.89038
G1 X114.709 Y134.615 E26.05821
G1 X115.353 Y133.971 E26.0885
G1 X115.353 Y133.915 E26.09036
G1 X115.82 Y133.915 E26.10589
G1 X115.919 Y133.815 E26.11057
G1 X116.183 Y133.815 E26.11935
G0 F3600 X114.681 Y134.815
G1 F1500 X114.681 Y140.315 E26.30228
G0 F3600 X115.709 Y138.684
G1 F1500 X112.039 Y138.684 E26.42435
G0 F3600 X112.014 Y138.644
G1 F1500 X112.014 Y134.816 E26.55167
G0 F3600 X110.919 Y136.017
G1 F1500 X116.117 Y136.017 E26.72456
G0 F3600 X109.347 Y135.315
G1 F1500 X109.347 Y134.823 E26.74092
G1 F1500 E25.74092
;MESH:Body4.stl
