;FLAVOR:Marlin
;TIME:415
;Filament used: 0m, 0.320139m
;Layer height: 0.2
;MINX:109.464
;MINY:99.441
;MINZ:0.2
;MAXX:130.089
;MAXY:120.554
;MAXZ:8.4
;Generated with Cura_SteamEngine 4.4.1
T1
M140 S65
M105
M190 S65
M104 S200
M105
M109 S200
M82 ;absolute extrusion mode
G28 ;Home
G1 Z15.0 F6000 ;Move the platform down 15mm
;Prime the extruder
G92 E0
G1 F200 E3
G92 E0
G92 E0
t1
G92 E0
G1 F1500 E-1
;LAYER_COUNT:42
;LAYER:0
M106 S255
G0 F3600 X110.863 Y107.434 Z0.2
;TYPE:SKIRT
G1 F1500 E0
G1 X112.878 Y105.546 E0.09184
G1 X114.778 Y103.663 E0.18081
G1 X116.567 Y101.79 E0.26696
G1 X117.373 Y100.923 E0.30633
G1 X117.574 Y100.72 E0.31583
G1 X117.646 Y100.652 E0.31913
G1 X118.103 Y100.275 E0.33883
G1 X118.607 Y99.963 E0.35855
G1 X119.149 Y99.721 E0.37829
G1 X119.718 Y99.555 E0.398
G1 X120.588 Y99.452 E0.42714
G1 X121.145 Y99.442 E0.44567
G1 X121.224 Y99.441 E0.4483
G1 X124.07 Y99.441 E0.54296
G1 X124.768 Y99.451 E0.56617
G1 X125.359 Y99.5 E0.5859
G1 X125.938 Y99.627 E0.60561
G1 X126.495 Y99.831 E0.62534
G1 X127.019 Y100.109 E0.64507
G1 X127.501 Y100.454 E0.66479
G1 X127.829 Y100.753 E0.67955
G1 X127.95 Y100.875 E0.68526
G1 X128.338 Y101.323 E0.70498
G1 X128.663 Y101.819 E0.7247
G1 X128.962 Y102.473 E0.74862
G1 X129.081 Y102.8 E0.76019
G1 X129.801 Y104.731 E0.82874
G1 X129.97 Y105.299 E0.84845
G1 X130.075 Y106.113 E0.87574
G1 X130.084 Y106.368 E0.88423
G1 X130.087 Y106.479 E0.88792
G1 X130.089 Y106.681 E0.89464
G1 X130.089 Y107.738 E0.9298
G1 X130.079 Y108.461 E0.95385
G1 X129.985 Y109.306 E0.98213
G1 X129.908 Y109.672 E0.99457
G1 X129.592 Y111.248 E1.04803
G1 X129.577 Y111.32 E1.05047
G1 X129.457 Y111.871 E1.06923
G1 X129.247 Y112.56 E1.09319
G1 X129.038 Y113.086 E1.11201
G1 X128.064 Y115.617 E1.20221
G1 X127.659 Y116.763 E1.24264
G1 X127.64 Y116.815 E1.24448
G1 X127.363 Y117.569 E1.2712
G1 X127.122 Y118.111 E1.29092
G1 X126.809 Y118.615 E1.31066
G1 X126.432 Y119.073 E1.33039
G1 X125.997 Y119.475 E1.35009
G1 X125.512 Y119.816 E1.36981
G1 X124.985 Y120.088 E1.38953
G1 X124.426 Y120.287 E1.40927
G1 X123.846 Y120.409 E1.42898
G1 X123.351 Y120.45 E1.4455
G1 X122.567 Y120.471 E1.47159
G1 X122.499 Y120.473 E1.47385
G1 X116.113 Y120.546 E1.68626
G1 X116.087 Y120.546 E1.68713
G1 X114.606 Y120.554 E1.73639
G1 X114.55 Y120.554 E1.73825
G1 X113.853 Y120.549 E1.76143
G1 X113.262 Y120.505 E1.78114
G1 X112.682 Y120.381 E1.80087
G1 X112.124 Y120.181 E1.82058
G1 X111.598 Y119.908 E1.84029
G1 X111.113 Y119.566 E1.86003
G1 X110.679 Y119.162 E1.87975
G1 X110.303 Y118.704 E1.89946
G1 X109.992 Y118.199 E1.91919
G1 X109.752 Y117.657 E1.9389
G1 X109.586 Y117.088 E1.95862
G1 X109.488 Y116.311 E1.98467
G1 X109.478 Y116.04 E1.99369
G1 X109.475 Y115.889 E1.99871
G1 X109.464 Y111.365 E2.14918
G1 X109.464 Y111.304 E2.15121
G1 X109.472 Y110.594 E2.17482
G1 X109.519 Y110.003 E2.19454
G1 X109.645 Y109.424 E2.21425
G1 X109.847 Y108.866 E2.23399
G1 X110.123 Y108.341 E2.25372
G1 X110.466 Y107.858 E2.27342
G1 X110.863 Y107.434 E2.29274
G0 F3600 X111.137 Y107.725
G1 F1500 X113.151 Y105.838 E2.38453
G1 X115.083 Y103.923 E2.47501
G1 X116.828 Y102.096 E2.55904
G1 X117.666 Y101.195 E2.59996
G1 X117.849 Y101.011 E2.6086
G1 X117.921 Y100.943 E2.61189
G1 X118.358 Y100.585 E2.63068
G1 X118.841 Y100.292 E2.64947
G1 X119.361 Y100.07 E2.66827
G1 X119.908 Y99.924 E2.6871
G1 X120.595 Y99.852 E2.71008
G1 X121.152 Y99.842 E2.72861
G1 X121.224 Y99.841 E2.731
G1 X124.064 Y99.841 E2.82546
G1 X124.762 Y99.851 E2.84868
G1 X125.326 Y99.899 E2.86751
G1 X125.876 Y100.026 E2.88628
G1 X126.404 Y100.23 E2.90511
G1 X126.898 Y100.505 E2.92391
G1 X127.545 Y101.034 E2.95171
G1 X127.666 Y101.156 E2.95742
G1 X128.035 Y101.585 E2.97624
G1 X128.339 Y102.061 E2.99503
G1 X128.586 Y102.609 E3.01502
G1 X128.706 Y102.94 E3.02673
G1 X129.426 Y104.871 E3.09528
G1 X129.586 Y105.413 E3.11407
G1 X129.676 Y106.127 E3.13801
G1 X129.685 Y106.382 E3.1465
G1 X129.687 Y106.483 E3.14986
G1 X129.689 Y106.685 E3.15657
G1 X129.689 Y107.732 E3.1914
G1 X129.679 Y108.455 E3.21545
G1 X129.593 Y109.224 E3.24118
G1 X129.516 Y109.59 E3.25362
G1 X129.2 Y111.169 E3.30718
G1 X129.186 Y111.235 E3.30943
G1 X129.066 Y111.786 E3.32818
G1 X128.875 Y112.412 E3.34995
G1 X128.682 Y112.898 E3.36734
G1 X127.689 Y115.477 E3.45926
G1 X127.282 Y116.63 E3.49993
G1 X127.265 Y116.677 E3.50159
G1 X126.988 Y117.431 E3.52831
G1 X126.756 Y117.947 E3.54712
G1 X126.453 Y118.425 E3.56595
G1 X126.087 Y118.855 E3.58473
G1 X125.663 Y119.229 E3.60353
G1 X125.191 Y119.54 E3.62233
G1 X124.68 Y119.781 E3.64112
G1 X124.139 Y119.948 E3.65996
G1 X123.34 Y120.051 E3.68675
G1 X122.556 Y120.072 E3.71284
G1 X122.495 Y120.073 E3.71486
G1 X116.109 Y120.146 E3.92728
G1 X116.085 Y120.146 E3.92808
G1 X114.604 Y120.154 E3.97734
G1 X114.553 Y120.154 E3.97903
G1 X113.856 Y120.149 E4.00221
G1 X113.293 Y120.105 E4.021
G1 X112.741 Y119.982 E4.03981
G1 X112.212 Y119.782 E4.05862
G1 X111.716 Y119.51 E4.07743
G1 X111.264 Y119.171 E4.09622
G1 X110.864 Y118.771 E4.11504
G1 X110.525 Y118.319 E4.13383
G1 X110.253 Y117.824 E4.15262
G1 X110.053 Y117.295 E4.17143
G1 X109.929 Y116.743 E4.19024
G1 X109.888 Y116.297 E4.20514
G1 X109.878 Y116.026 E4.21416
G1 X109.875 Y115.888 E4.21875
G1 X109.864 Y111.364 E4.36922
G1 X109.864 Y111.309 E4.37105
G1 X109.872 Y110.599 E4.39467
G1 X109.919 Y110.035 E4.41349
G1 X110.044 Y109.484 E4.43228
G1 X110.246 Y108.956 E4.45108
G1 X110.52 Y108.462 E4.46987
G1 X110.861 Y108.011 E4.48868
G1 X111.137 Y107.725 E4.5019
G0 F3600 X111.41 Y108.017
G1 F1500 X113.441 Y106.114 E4.59447
G1 X115.353 Y104.219 E4.684
G1 X117.125 Y102.364 E4.76933
G1 X117.958 Y101.468 E4.81002
G1 X118.123 Y101.302 E4.8178
G1 X118.195 Y101.234 E4.8211
G1 X118.611 Y100.896 E4.83892
G1 X119.073 Y100.623 E4.85677
G1 X119.57 Y100.422 E4.8746
G1 X120.092 Y100.297 E4.89246
G1 X120.602 Y100.252 E4.90948
G1 X121.159 Y100.242 E4.92801
G1 X121.224 Y100.241 E4.93018
G1 X124.059 Y100.241 E5.02447
G1 X124.757 Y100.251 E5.04769
G1 X125.291 Y100.299 E5.06552
G1 X125.812 Y100.425 E5.08335
G1 X126.309 Y100.628 E5.1012
G1 X126.77 Y100.902 E5.11904
G1 X127.261 Y101.316 E5.1404
G1 X127.382 Y101.438 E5.14612
G1 X127.73 Y101.846 E5.16395
G1 X128.014 Y102.301 E5.18179
G1 X128.21 Y102.746 E5.19796
G1 X128.331 Y103.079 E5.20975
G1 X129.051 Y105.01 E5.27829
G1 X129.201 Y105.525 E5.29613
G1 X129.276 Y106.141 E5.31677
G1 X129.285 Y106.396 E5.32526
G1 X129.287 Y106.487 E5.32829
G1 X129.289 Y106.689 E5.33501
G1 X129.289 Y107.727 E5.36953
G1 X129.279 Y108.45 E5.39358
G1 X129.202 Y109.141 E5.4167
G1 X129.125 Y109.507 E5.42914
G1 X128.808 Y111.091 E5.48287
G1 X128.796 Y111.15 E5.48487
G1 X128.676 Y111.701 E5.50363
G1 X128.504 Y112.264 E5.52321
G1 X128.295 Y112.79 E5.54204
G1 X127.315 Y115.336 E5.63277
G1 X126.905 Y116.497 E5.67372
G1 X126.889 Y116.539 E5.67522
G1 X126.612 Y117.293 E5.70194
G1 X126.39 Y117.782 E5.7198
G1 X126.098 Y118.231 E5.73761
G1 X125.743 Y118.633 E5.75545
G1 X125.331 Y118.977 E5.7733
G1 X124.874 Y119.256 E5.79111
G1 X124.379 Y119.465 E5.80898
G1 X123.86 Y119.597 E5.82679
G1 X123.329 Y119.651 E5.84455
G1 X122.545 Y119.672 E5.87063
G1 X122.49 Y119.673 E5.87246
G1 X116.104 Y119.746 E6.08487
G1 X116.082 Y119.746 E6.08561
G1 X114.601 Y119.754 E6.13486
G1 X114.556 Y119.754 E6.13636
G1 X113.859 Y119.749 E6.15954
G1 X113.325 Y119.705 E6.17737
G1 X112.803 Y119.582 E6.1952
G1 X112.305 Y119.384 E6.21303
G1 X111.842 Y119.113 E6.23087
G1 X111.424 Y118.776 E6.24873
G1 X111.061 Y118.382 E6.26655
G1 X110.761 Y117.937 E6.2844
G1 X110.53 Y117.453 E6.30223
G1 X110.373 Y116.94 E6.32008
G1 X110.287 Y116.282 E6.34215
G1 X110.277 Y116.011 E6.35117
G1 X110.275 Y115.887 E6.35529
G1 X110.264 Y111.363 E6.50576
G1 X110.264 Y111.313 E6.50743
G1 X110.272 Y110.603 E6.53104
G1 X110.318 Y110.069 E6.54887
G1 X110.443 Y109.548 E6.56669
G1 X110.644 Y109.05 E6.58455
G1 X110.917 Y108.588 E6.6024
G1 X111.41 Y108.017 E6.62749
G0 F3600 X111.684 Y108.309
G1 F1500 X113.714 Y106.407 E6.72001
G1 X115.623 Y104.515 E6.80941
G1 X117.434 Y102.619 E6.89661
G1 X118.251 Y101.74 E6.93653
G1 X118.398 Y101.593 E6.94344
G1 X118.47 Y101.525 E6.94674
G1 X118.864 Y101.208 E6.96356
G1 X119.302 Y100.957 E6.98035
G1 X119.775 Y100.778 E6.99717
G1 X120.271 Y100.676 E7.01401
G1 X120.61 Y100.652 E7.02531
G1 X121.167 Y100.642 E7.04384
G1 X121.224 Y100.641 E7.04574
G1 X124.053 Y100.641 E7.13983
G1 X124.751 Y100.651 E7.16305
G1 X125.254 Y100.698 E7.17985
G1 X125.744 Y100.824 E7.19668
G1 X126.208 Y101.026 E7.21351
G1 X126.634 Y101.298 E7.23032
G1 X126.977 Y101.598 E7.24548
G1 X127.098 Y101.72 E7.25119
G1 X127.425 Y102.106 E7.26802
G1 X127.686 Y102.538 E7.28481
G1 X127.834 Y102.882 E7.29726
G1 X127.956 Y103.219 E7.30918
G1 X128.676 Y105.15 E7.37773
G1 X128.815 Y105.636 E7.39454
G1 X128.876 Y106.155 E7.41192
G1 X128.885 Y106.41 E7.42041
G1 X128.887 Y106.491 E7.4231
G1 X128.889 Y106.693 E7.42982
G1 X128.889 Y107.721 E7.46401
G1 X128.879 Y108.444 E7.48806
G1 X128.81 Y109.059 E7.50864
G1 X128.74 Y109.394 E7.52003
G1 X128.416 Y111.012 E7.57491
G1 X128.405 Y111.065 E7.57671
G1 X128.285 Y111.616 E7.59547
G1 X128.132 Y112.117 E7.61289
G1 X127.923 Y112.643 E7.63172
G1 X126.931 Y115.219 E7.72353
G1 X126.527 Y116.363 E7.76388
G1 X126.514 Y116.401 E7.76522
G1 X126.237 Y117.155 E7.79193
G1 X126.025 Y117.615 E7.80878
G1 X125.744 Y118.035 E7.82559
G1 X125.401 Y118.406 E7.84239
G1 X125.003 Y118.718 E7.85921
G1 X124.561 Y118.963 E7.87602
G1 X124.086 Y119.136 E7.89283
G1 X123.59 Y119.232 E7.90964
G1 X123.319 Y119.251 E7.91867
G1 X122.535 Y119.272 E7.94476
G1 X122.486 Y119.273 E7.94639
G1 X116.1 Y119.346 E8.1588
G1 X116.08 Y119.346 E8.15947
G1 X114.599 Y119.354 E8.20872
G1 X114.559 Y119.354 E8.21006
G1 X113.862 Y119.349 E8.23324
G1 X113.358 Y119.305 E8.25006
G1 X112.868 Y119.183 E8.26686
G1 X112.403 Y118.985 E8.28367
G1 X111.975 Y118.716 E8.30048
G1 X111.594 Y118.383 E8.31731
G1 X111.271 Y117.994 E8.33413
G1 X111.013 Y117.56 E8.35092
G1 X110.826 Y117.09 E8.36775
G1 X110.716 Y116.596 E8.38458
G1 X110.687 Y116.267 E8.39556
G1 X110.677 Y115.996 E8.40458
G1 X110.675 Y115.886 E8.40824
G1 X110.664 Y111.362 E8.55871
G1 X110.664 Y111.318 E8.56018
G1 X110.672 Y110.608 E8.58379
G1 X110.718 Y110.104 E8.60063
G1 X110.842 Y109.614 E8.61744
G1 X111.042 Y109.15 E8.63424
G1 X111.313 Y108.723 E8.65106
G1 X111.684 Y108.309 E8.66955
G0 F3600 X117.06 Y109.042
;TYPE:SUPPORT
G1 F1500 X119.109 Y109.041 E8.7377
G1 X119.508 Y108.642 E8.75647
G1 X119.512 Y106.478 E8.82845
G1 X120.457 Y106.089 E8.86244
G1 X120.745 Y105.657 E8.8797
G1 X120.745 Y104.041 E8.93345
G1 X124.631 Y104.041 E9.0627
G1 X124.632 Y104.418 E9.07524
G1 X124.632 Y105.733 E9.11898
G1 X124.92 Y106.165 E9.13625
G1 X125.489 Y106.402 E9.15675
G1 X125.489 Y108.274 E9.21901
G1 X125.261 Y108.365 E9.22717
G1 X124.968 Y108.797 E9.24454
G1 X124.968 Y110.741 E9.30919
G1 X124.703 Y110.741 E9.31801
G1 X124.605 Y110.642 E9.32264
G1 X124.138 Y110.641 E9.33817
G1 X124.138 Y110.585 E9.34004
G1 X123.494 Y109.941 E9.37033
G1 X119.247 Y109.941 E9.51158
G1 X117.902 Y109.929 E9.55632
G1 X117.06 Y109.907 E9.58433
G1 X117.06 Y109.042 E9.6131
G0 F3600 X117.348 Y109.241
G1 F1500 X117.348 Y109.714 E9.62884
G0 F3600 X117.26 Y109.347
G1 F1500 X124.768 Y109.347 E9.87855
G0 F3600 X122.682 Y109.741
G1 F1500 X122.682 Y104.241 E10.06148
G0 F3600 X120.015 Y106.487
G1 F1500 X120.015 Y109.741 E10.16971
G0 F3600 X119.712 Y106.68
G1 F1500 X125.289 Y106.68 E10.35521
G1 F1500 E9.35521
;MESH:Body17.stl
G0 F3600 X116.509 Y110.138
G0 X116.49 Y111.409
G0 X115.136 Y111.424
G0 X115.141 Y111.325
;TYPE:WALL-INNER
G1 F1500 E10.35521
G1 X116.49 Y111.39 E10.40013
G1 X117.171 Y111.412 E10.42279
G1 X117.868 Y111.429 E10.44598
G1 X119.235 Y111.441 E10.49144
G1 X122.638 Y111.441 E10.60463
G1 X122.639 Y115.471 E10.73867
G1 X116.197 Y115.545 E10.95294
G1 X114.674 Y115.554 E11.0036
G1 X114.474 Y115.555 E11.01025
G1 X114.474 Y115.355 E11.01455
G1 X114.464 Y111.493 E11.143
G1 X114.464 Y111.492 E11.14303
G1 X114.464 Y111.28 E11.15009
G1 X114.676 Y111.294 E11.15458
G1 X115.141 Y111.325 E11.17008
G0 F3600 X115.164 Y110.926
;TYPE:WALL-OUTER
G1 F1500 X116.506 Y110.99 E11.21476
G1 X117.182 Y111.012 E11.23726
G1 X117.875 Y111.029 E11.26032
G1 X119.237 Y111.041 E11.30562
G1 X123.038 Y111.041 E11.43204
G1 X123.039 Y115.866 E11.59252
G1 X116.202 Y115.945 E11.81993
G1 X114.275 Y115.956 E11.88403
G1 X114.075 Y115.957 E11.89068
G1 X114.075 Y115.757 E11.89498
G1 X114.063 Y111.067 E12.05097
G1 X114.063 Y111.066 E12.051
G1 X114.063 Y110.853 E12.05809
G1 X114.276 Y110.867 E12.06259
G1 X115.164 Y110.926 E12.09219
G0 F3600 X115.363 Y110.935
G0 X115.342 Y111.374
G0 X115.119 Y111.715
;TYPE:SKIN
G1 F1500 X116.474 Y111.78 E12.13731
G1 X117.16 Y111.802 E12.16014
G1 X117.862 Y111.819 E12.1835
G1 X119.233 Y111.831 E12.2291
G1 X122.248 Y111.831 E12.32938
G1 X122.249 Y115.085 E12.43761
G1 X116.193 Y115.155 E12.63904
G1 X114.864 Y115.163 E12.68325
G1 X114.855 Y111.698 E12.79849
G1 X115.119 Y111.715 E12.80729
G0 F3600 X115.544 Y114.979
G1 F1500 X115.041 Y114.475 E12.83098
G0 F3600 X115.039 Y113.908
G1 F1500 X116.106 Y114.975 E12.88116
G0 F3600 X116.666 Y114.969
G1 F1500 X115.038 Y113.341 E12.95774
G0 F3600 X115.037 Y112.774
G1 F1500 X117.225 Y114.962 E13.06066
G0 F3600 X117.784 Y114.956
G1 F1500 X115.035 Y112.207 E13.18996
G0 F3600 X115.298 Y111.904
G1 F1500 X118.344 Y114.95 E13.33324
G0 F3600 X118.903 Y114.943
G1 F1500 X115.893 Y111.933 E13.47482
G0 F3600 X116.486 Y111.961
G1 F1500 X119.462 Y114.936 E13.61478
G0 F3600 X120.021 Y114.93
G1 F1500 X117.071 Y111.98 E13.75354
G0 F3600 X117.651 Y111.994
G1 F1500 X120.58 Y114.923 E13.89131
G0 F3600 X121.14 Y114.917
G1 F1500 X118.224 Y112.002 E14.02844
G0 F3600 X118.796 Y112.007
G1 F1500 X121.699 Y114.911 E14.16501
G0 F3600 X122.068 Y114.714
G1 F1500 X119.365 Y112.011 E14.29215
G0 F3600 X119.93 Y112.011
G1 F1500 X122.068 Y114.148 E14.3927
G0 F3600 X122.068 Y113.583
G1 F1500 X120.496 Y112.011 E14.46664
G0 F3600 X121.062 Y112.011
G1 F1500 X122.067 Y113.016 E14.51391
G0 F3600 X122.067 Y112.451
G1 F1500 X121.628 Y112.011 E14.53458
G1 F1500 E13.53458
;MESH:NONMESH
G0 F600 X121.628 Y112.011 Z0.4
G0 F3600 X119.235 Y111.461
G0 X119.245 Y110.176
G0 X117.06 Y109.042
;TIME_ELAPSED:22.967944
;LAYER:1
M140 S55
;TYPE:SUPPORT
G1 F1500 E14.53458
G1 F2250 X117.06 Y109.906 E14.56332
G1 X117.202 Y109.911 E14.56805
G1 X117.348 Y109.914 E14.5729
G1 X117.348 Y109.041 E14.60194
G1 X119.109 Y109.041 E14.66051
G1 X119.508 Y108.642 E14.67928
G1 X119.512 Y106.478 E14.75125
G1 X120.015 Y106.27 E14.76936
G1 X120.015 Y109.941 E14.89145
G1 X122.682 Y109.941 E14.98016
G1 X122.682 Y104.041 E15.17639
G1 X124.631 Y104.041 E15.24122
G1 X124.632 Y104.418 E15.25376
G1 X124.632 Y105.733 E15.29749
G1 X124.92 Y106.165 E15.31476
G1 X125.349 Y106.344 E15.33022
G1 X125.349 Y108.33 E15.39628
G1 X125.489 Y108.274 E15.40129
G1 X125.489 Y106.402 E15.46356
G1 X125.349 Y106.344 E15.4686
G0 F5400 X117.348 Y109.041
G1 F2250 X117.061 Y109.041 E15.47814
G1 F1500 E14.47814
;MESH:Body17.stl
G0 F5400 X116.983 Y111.425
G0 X114.532 Y115.485
G0 X114.462 Y115.555
;TYPE:WALL-INNER
G1 F1500 E15.47814
G1 F2250 X114.462 Y115.355 E15.48479
G1 X114.462 Y111.493 E15.61325
G1 X114.462 Y111.492 E15.61328
G1 X114.462 Y111.28 E15.62033
G1 X114.674 Y111.294 E15.62482
G1 X115.126 Y111.324 E15.63989
G1 X116.475 Y111.389 E15.68481
G1 X117.153 Y111.411 E15.70737
G1 X117.871 Y111.429 E15.73126
G1 X119.236 Y111.441 E15.77666
G1 X122.838 Y111.441 E15.89646
G1 X122.839 Y115.47 E16.03047
G1 X116.216 Y115.545 E16.25076
G1 X114.662 Y115.554 E16.30245
G1 X114.462 Y115.555 E16.30675
G0 F5400 X114.263 Y115.956
;TYPE:WALL-OUTER
G1 F1500 X114.262 Y115.957 E16.3068
G1 X114.062 Y115.957 E16.31345
G1 X114.062 Y115.757 E16.31776
G1 X114.062 Y115.756 E16.31779
G1 X114.062 Y111.066 E16.47378
G1 X114.062 Y111.065 E16.47381
G1 X114.062 Y110.853 E16.48086
G1 X114.274 Y110.867 E16.48536
G1 X115.149 Y110.925 E16.51452
G1 X116.491 Y110.989 E16.55921
G1 X117.165 Y111.011 E16.58164
G1 X117.879 Y111.029 E16.60539
G1 X118.518 Y111.037 E16.62665
G1 X119.237 Y111.041 E16.65056
G1 X123.238 Y111.041 E16.78364
G1 X123.239 Y115.865 E16.94408
G1 X116.221 Y115.945 E17.17752
G1 X114.263 Y115.956 E17.24264
G0 F5400 X114.262 Y115.957
G0 X114.063 Y115.957
G0 X114.502 Y115.516
