;FLAVOR:Marlin
;TIME:295
;Filament used: 0m, 0.221594m
;Layer height: 0.2
;MINX:110.122
;MINY:99.111
;MINZ:0.2
;MAXX:129.429
;MAXY:120.906
;MAXZ:8.4
;Generated with Cura_SteamEngine 4.4.1
T1
M140 S65
M105
M190 S65
M104 S200
M105
M109 S200
M82 ;absolute extrusion mode
G28 ;Home
G1 Z15.0 F6000 ;Move the platform down 15mm
;Prime the extruder
G92 E0
G1 F200 E3
G92 E0
G92 E0
t1
G92 E0
G1 F1500 E-1
;LAYER_COUNT:42
;LAYER:0
M106 S255
G0 F3600 X111.433 Y100.776 Z0.2
;TYPE:SKIRT
G1 F1500 E0
G1 X111.883 Y100.351 E0.02059
G1 X112.384 Y99.987 E0.04118
G1 X112.928 Y99.691 E0.06178
G1 X113.505 Y99.467 E0.08237
G1 X114.107 Y99.319 E0.10299
G1 X114.732 Y99.25 E0.1239
G1 X115.574 Y99.212 E0.15194
G1 X115.668 Y99.209 E0.15506
G1 X116.734 Y99.182 E0.19053
G1 X116.759 Y99.181 E0.19136
G1 X118.335 Y99.149 E0.24379
G1 X118.364 Y99.148 E0.24476
G1 X120.328 Y99.12 E0.31009
G1 X120.355 Y99.12 E0.31098
G1 X121.416 Y99.111 E0.34627
G1 X121.477 Y99.111 E0.3483
G1 X122.199 Y99.114 E0.37232
G1 X122.817 Y99.157 E0.39292
G1 X123.424 Y99.278 E0.41351
G1 X124.011 Y99.477 E0.43412
G1 X124.567 Y99.75 E0.45472
G1 X125.083 Y100.092 E0.47531
G1 X125.551 Y100.498 E0.49592
G1 X125.963 Y100.96 E0.51651
G1 X126.312 Y101.472 E0.53712
G1 X126.7 Y102.303 E0.56762
G1 X127.166 Y103.612 E0.61384
G1 X128.141 Y106.182 E0.70526
G1 X128.37 Y106.744 E0.72544
G1 X128.403 Y106.827 E0.72841
G1 X128.579 Y107.283 E0.74467
G1 X128.806 Y108.058 E0.77153
G1 X129.076 Y109.394 E0.81686
G1 X129.257 Y110.248 E0.8459
G1 X129.28 Y110.364 E0.84983
G1 X129.334 Y110.654 E0.85964
G1 X129.414 Y111.449 E0.88622
G1 X129.428 Y112.253 E0.91297
G1 X129.429 Y112.337 E0.91576
G1 X129.429 Y113 E0.93781
G1 X129.419 Y113.73 E0.96209
G1 X129.37 Y114.347 E0.98268
G1 X129.243 Y114.953 E1.00327
G1 X129.123 Y115.322 E1.01618
G1 X128.271 Y117.636 E1.09819
G1 X128.02 Y118.203 E1.11882
G1 X127.698 Y118.732 E1.13941
G1 X127.205 Y119.328 E1.16514
G1 X127.09 Y119.446 E1.17062
G1 X126.63 Y119.861 E1.19123
G1 X126.12 Y120.213 E1.21184
G1 X125.569 Y120.496 E1.23244
G1 X124.987 Y120.707 E1.25303
G1 X124.382 Y120.84 E1.27363
G1 X123.738 Y120.895 E1.29513
G1 X123.181 Y120.905 E1.31366
G1 X123.095 Y120.906 E1.31652
G1 X120.241 Y120.906 E1.41144
G1 X119.543 Y120.896 E1.43466
G1 X118.926 Y120.847 E1.45525
G1 X118.32 Y120.719 E1.47585
G1 X117.735 Y120.514 E1.49647
G1 X117.182 Y120.235 E1.51707
G1 X116.669 Y119.888 E1.53767
G1 X116.205 Y119.478 E1.55826
G1 X115.91 Y119.151 E1.57291
G1 X115.608 Y118.785 E1.58869
G1 X115.392 Y118.503 E1.60051
G1 X114.162 Y116.765 E1.67132
G1 X112.533 Y114.595 E1.76157
G1 X112.016 Y113.926 E1.78969
G1 X111.669 Y113.413 E1.81029
G1 X111.516 Y113.13 E1.82099
G1 X111.265 Y112.626 E1.83972
G1 X111.233 Y112.56 E1.84216
G1 X111.039 Y112.155 E1.85709
G1 X111.016 Y112.106 E1.85889
G1 X110.595 Y111.201 E1.89209
G1 X110.37 Y110.623 E1.91272
G1 X110.222 Y110.022 E1.93331
G1 X110.148 Y109.279 E1.95814
G1 X110.136 Y108.718 E1.97681
G1 X110.135 Y108.631 E1.9797
G1 X110.122 Y104.823 E2.10636
G1 X110.122 Y104.749 E2.10882
G1 X110.129 Y104.17 E2.12808
G1 X110.155 Y103.732 E2.14267
G1 X110.174 Y103.549 E2.14879
G1 X110.277 Y102.939 E2.16936
G1 X110.459 Y102.346 E2.19
G1 X110.715 Y101.783 E2.21057
G1 X111.041 Y101.256 E2.23118
G1 X111.433 Y100.776 E2.25179
G0 F3600 X111.813 Y100.958
G1 F1500 X112.257 Y100.564 E2.27153
G1 X112.749 Y100.234 E2.29124
G1 X113.282 Y99.973 E2.31098
G1 X113.844 Y99.786 E2.33068
G1 X114.427 Y99.676 E2.35041
G1 X114.75 Y99.649 E2.36119
G1 X115.592 Y99.611 E2.38922
G1 X115.679 Y99.608 E2.39212
G1 X116.745 Y99.581 E2.42758
G1 X116.767 Y99.581 E2.42832
G1 X118.343 Y99.549 E2.48074
G1 X118.369 Y99.548 E2.48161
G1 X120.333 Y99.52 E2.54694
G1 X120.359 Y99.52 E2.5478
G1 X121.42 Y99.511 E2.58309
G1 X121.475 Y99.511 E2.58492
G1 X122.197 Y99.514 E2.60894
G1 X122.789 Y99.556 E2.62868
G1 X123.369 Y99.678 E2.64839
G1 X123.928 Y99.876 E2.66811
G1 X124.455 Y100.148 E2.68784
G1 X124.94 Y100.488 E2.70754
G1 X125.376 Y100.891 E2.72729
G1 X125.753 Y101.348 E2.74699
G1 X126.066 Y101.852 E2.76672
G1 X126.324 Y102.437 E2.78799
G1 X126.8 Y103.774 E2.83519
G1 X127.763 Y106.312 E2.92548
G1 X128 Y106.895 E2.94641
G1 X128.03 Y106.971 E2.94913
G1 X128.206 Y107.427 E2.96539
G1 X128.413 Y108.138 E2.99002
G1 X128.684 Y109.477 E3.03545
G1 X128.865 Y110.331 E3.06449
G1 X128.887 Y110.438 E3.06812
G1 X128.941 Y110.728 E3.07793
G1 X129.014 Y111.456 E3.10227
G1 X129.028 Y112.26 E3.12901
G1 X129.029 Y112.337 E3.13157
G1 X129.029 Y112.994 E3.15343
G1 X129.019 Y113.724 E3.17771
G1 X128.971 Y114.315 E3.19743
G1 X128.843 Y114.894 E3.21715
G1 X128.748 Y115.184 E3.2273
G1 X127.896 Y117.498 E3.30932
G1 X127.654 Y118.04 E3.32906
G1 X127.342 Y118.544 E3.34877
G1 X126.918 Y119.049 E3.37071
G1 X126.803 Y119.167 E3.37619
G1 X126.362 Y119.563 E3.3959
G1 X125.871 Y119.896 E3.41563
G1 X125.34 Y120.159 E3.43534
G1 X124.778 Y120.349 E3.45507
G1 X124.196 Y120.462 E3.47479
G1 X123.731 Y120.495 E3.4903
G1 X123.174 Y120.505 E3.50883
G1 X123.095 Y120.506 E3.51145
G1 X120.247 Y120.506 E3.60618
G1 X119.549 Y120.496 E3.6294
G1 X118.958 Y120.447 E3.64912
G1 X118.379 Y120.32 E3.66884
G1 X117.822 Y120.116 E3.68856
G1 X117.298 Y119.838 E3.70829
G1 X116.816 Y119.493 E3.72801
G1 X116.218 Y118.896 E3.75611
G1 X115.916 Y118.53 E3.7719
G1 X115.718 Y118.272 E3.78271
G1 X114.476 Y116.516 E3.85425
G1 X112.874 Y114.382 E3.943
G1 X112.332 Y113.681 E3.97247
G1 X111.874 Y112.951 E4.00114
G1 X111.623 Y112.447 E4.01986
G1 X111.594 Y112.387 E4.02208
G1 X111.4 Y111.982 E4.03701
G1 X111.379 Y111.937 E4.03867
G1 X110.958 Y111.032 E4.07186
G1 X110.744 Y110.479 E4.09159
G1 X110.607 Y109.902 E4.11131
G1 X110.548 Y109.27 E4.13242
G1 X110.536 Y108.709 E4.15109
G1 X110.535 Y108.63 E4.15371
G1 X110.522 Y104.822 E4.28037
G1 X110.522 Y104.754 E4.28263
G1 X110.529 Y104.175 E4.30189
G1 X110.553 Y103.774 E4.31525
G1 X110.572 Y103.591 E4.32137
G1 X110.672 Y103.006 E4.34111
G1 X110.851 Y102.441 E4.36082
G1 X111.104 Y101.905 E4.38054
G1 X111.426 Y101.407 E4.40026
G1 X111.813 Y100.958 E4.41998
G0 F3600 X112.192 Y101.146
G1 F1500 X112.628 Y100.786 E4.43878
G1 X113.111 Y100.492 E4.45759
G1 X113.63 Y100.268 E4.47639
G1 X114.176 Y100.12 E4.4952
G1 X114.768 Y100.049 E4.51504
G1 X115.61 Y100.011 E4.54307
G1 X115.689 Y100.008 E4.5457
G1 X116.755 Y99.981 E4.58117
G1 X116.775 Y99.981 E4.58183
G1 X118.351 Y99.949 E4.63426
G1 X118.375 Y99.948 E4.63506
G1 X120.339 Y99.92 E4.70039
G1 X120.362 Y99.92 E4.70115
G1 X121.423 Y99.911 E4.73644
G1 X121.474 Y99.911 E4.73814
G1 X122.196 Y99.914 E4.76215
G1 X122.759 Y99.956 E4.78093
G1 X123.312 Y100.078 E4.79977
G1 X123.841 Y100.276 E4.81855
G1 X124.337 Y100.546 E4.83734
G1 X124.791 Y100.884 E4.85616
G1 X125.192 Y101.283 E4.87498
G1 X125.533 Y101.734 E4.89378
G1 X125.806 Y102.228 E4.91255
G1 X125.947 Y102.571 E4.92489
G1 X126.43 Y103.927 E4.97276
G1 X127.398 Y106.478 E5.06351
G1 X127.629 Y107.046 E5.08391
G1 X127.657 Y107.115 E5.08639
G1 X127.833 Y107.571 E5.10264
G1 X128.021 Y108.217 E5.12502
G1 X128.293 Y109.56 E5.1706
G1 X128.474 Y110.414 E5.19963
G1 X128.493 Y110.511 E5.20292
G1 X128.547 Y110.801 E5.21273
G1 X128.614 Y111.463 E5.23486
G1 X128.628 Y112.267 E5.26161
G1 X128.629 Y112.337 E5.26393
G1 X128.629 Y112.989 E5.28562
G1 X128.619 Y113.719 E5.3099
G1 X128.571 Y114.282 E5.32869
G1 X128.373 Y115.046 E5.35495
G1 X127.521 Y117.36 E5.43696
G1 X127.288 Y117.875 E5.45576
G1 X126.986 Y118.353 E5.47457
G1 X126.632 Y118.77 E5.49276
G1 X126.517 Y118.888 E5.49824
G1 X126.094 Y119.264 E5.51706
G1 X125.623 Y119.576 E5.53585
G1 X125.113 Y119.82 E5.55466
G1 X124.574 Y119.988 E5.57344
G1 X124.016 Y120.079 E5.59224
G1 X123.724 Y120.095 E5.60197
G1 X123.167 Y120.105 E5.6205
G1 X123.095 Y120.106 E5.62289
G1 X120.253 Y120.106 E5.71742
G1 X119.555 Y120.096 E5.74063
G1 X118.991 Y120.048 E5.75946
G1 X118.441 Y119.921 E5.77824
G1 X117.913 Y119.717 E5.79706
G1 X117.419 Y119.442 E5.81587
G1 X116.97 Y119.099 E5.83466
G1 X116.527 Y118.642 E5.85583
G1 X116.225 Y118.276 E5.87161
G1 X116.045 Y118.041 E5.88146
G1 X114.807 Y116.291 E5.95275
G1 X113.191 Y114.138 E6.04229
G1 X112.649 Y113.437 E6.07176
G1 X112.232 Y112.773 E6.09784
G1 X111.981 Y112.269 E6.11657
G1 X111.955 Y112.214 E6.11859
G1 X111.761 Y111.809 E6.13353
G1 X111.741 Y111.768 E6.13504
G1 X111.32 Y110.863 E6.16824
G1 X111.119 Y110.335 E6.18703
G1 X110.993 Y109.784 E6.20583
G1 X110.948 Y109.262 E6.22326
G1 X110.936 Y108.701 E6.24192
G1 X110.935 Y108.629 E6.24432
G1 X110.922 Y104.821 E6.37097
G1 X110.922 Y104.759 E6.37303
G1 X110.929 Y104.18 E6.39229
G1 X110.95 Y103.815 E6.40445
G1 X110.969 Y103.632 E6.41057
G1 X111.067 Y103.075 E6.42938
G1 X111.243 Y102.538 E6.44818
G1 X111.492 Y102.03 E6.46699
G1 X111.811 Y101.563 E6.48581
G1 X112.192 Y101.146 E6.50459
G0 F3600 X112.194 Y101.726
G1 F1500 X112.569 Y101.343 E6.52242
G1 X112.997 Y101.019 E6.54027
G1 X113.468 Y100.763 E6.5581
G1 X113.972 Y100.58 E6.57594
G1 X114.498 Y100.473 E6.59379
G1 X114.786 Y100.449 E6.6034
G1 X115.628 Y100.411 E6.63144
G1 X115.699 Y100.408 E6.6338
G1 X116.765 Y100.381 E6.66927
G1 X116.783 Y100.381 E6.66987
G1 X118.359 Y100.349 E6.72229
G1 X118.381 Y100.348 E6.72303
G1 X120.345 Y100.32 E6.78836
G1 X120.365 Y100.32 E6.78902
G1 X121.426 Y100.311 E6.82431
G1 X121.472 Y100.311 E6.82584
G1 X122.194 Y100.314 E6.84986
G1 X122.729 Y100.356 E6.8677
G1 X123.251 Y100.477 E6.88553
G1 X123.75 Y100.675 E6.90338
G1 X124.213 Y100.944 E6.92119
G1 X124.632 Y101.279 E6.93904
G1 X124.996 Y101.673 E6.95688
G1 X125.298 Y102.116 E6.97471
G1 X125.57 Y102.706 E6.99632
G1 X126.048 Y104.047 E7.04367
G1 X127.019 Y106.608 E7.13476
G1 X127.259 Y107.197 E7.15592
G1 X127.284 Y107.259 E7.15814
G1 X127.46 Y107.715 E7.1744
G1 X127.629 Y108.297 E7.19456
G1 X127.902 Y109.643 E7.24023
G1 X128.083 Y110.497 E7.26927
G1 X128.1 Y110.584 E7.27222
G1 X128.154 Y110.874 E7.28203
G1 X128.214 Y111.47 E7.30195
G1 X128.228 Y112.274 E7.3287
G1 X128.229 Y112.337 E7.33079
G1 X128.229 Y112.983 E7.35228
G1 X128.219 Y113.713 E7.37656
G1 X128.171 Y114.248 E7.39443
G1 X127.997 Y114.908 E7.41713
G1 X127.145 Y117.222 E7.49914
G1 X126.923 Y117.71 E7.51698
G1 X126.631 Y118.16 E7.53482
G1 X126.345 Y118.491 E7.54937
G1 X126.23 Y118.609 E7.55485
G1 X125.828 Y118.964 E7.57269
G1 X125.378 Y119.255 E7.59051
G1 X124.89 Y119.477 E7.60834
G1 X124.374 Y119.623 E7.62618
G1 X123.717 Y119.695 E7.64816
G1 X123.16 Y119.705 E7.66669
G1 X123.095 Y119.706 E7.66885
G1 X120.258 Y119.706 E7.76321
G1 X119.56 Y119.696 E7.78643
G1 X119.026 Y119.648 E7.80426
G1 X118.505 Y119.522 E7.82209
G1 X118.008 Y119.319 E7.83994
G1 X117.547 Y119.045 E7.85778
G1 X117.132 Y118.706 E7.8756
G1 X116.835 Y118.387 E7.8901
G1 X116.533 Y118.021 E7.90588
G1 X116.371 Y117.81 E7.91473
G1 X115.12 Y116.043 E7.98674
G1 X113.507 Y113.893 E8.07614
G1 X112.965 Y113.192 E8.10561
G1 X112.591 Y112.595 E8.12904
G1 X112.34 Y112.091 E8.14776
G1 X112.315 Y112.041 E8.14962
G1 X112.121 Y111.636 E8.16456
G1 X112.104 Y111.599 E8.16591
G1 X111.683 Y110.694 E8.19911
G1 X111.494 Y110.193 E8.21692
G1 X111.381 Y109.668 E8.23478
G1 X111.348 Y109.253 E8.24863
G1 X111.336 Y108.692 E8.26729
G1 X111.335 Y108.627 E8.26946
G1 X111.322 Y104.819 E8.39611
G1 X111.322 Y104.763 E8.39797
G1 X111.329 Y104.184 E8.41723
G1 X111.348 Y103.856 E8.42816
G1 X111.367 Y103.673 E8.43428
G1 X111.462 Y103.145 E8.45212
G1 X111.635 Y102.638 E8.46994
G1 X111.88 Y102.161 E8.48778
G1 X112.194 Y101.726 E8.50562
G0 F3600 X112.576 Y101.897
G1 F1500 X112.944 Y101.55 E8.52244
G1 X113.362 Y101.265 E8.53927
G1 X113.82 Y101.05 E8.5561
G1 X114.306 Y100.91 E8.57292
G1 X114.804 Y100.848 E8.58961
G1 X115.646 Y100.81 E8.61764
G1 X115.709 Y100.808 E8.61974
G1 X116.775 Y100.781 E8.65521
G1 X116.791 Y100.781 E8.65574
G1 X118.367 Y100.749 E8.70817
G1 X118.386 Y100.748 E8.7088
G1 X120.35 Y100.72 E8.77413
G1 X120.369 Y100.72 E8.77476
G1 X121.43 Y100.711 E8.81005
G1 X121.47 Y100.711 E8.81138
G1 X122.192 Y100.714 E8.8354
G1 X122.696 Y100.756 E8.85222
G1 X123.187 Y100.877 E8.86904
G1 X123.653 Y101.074 E8.88586
G1 X124.082 Y101.341 E8.90267
G1 X124.463 Y101.673 E8.91948
G1 X124.788 Y102.061 E8.93631
G1 X125.047 Y102.495 E8.95312
G1 X125.193 Y102.84 E8.96558
G1 X125.661 Y104.154 E9.01198
G1 X126.66 Y106.787 E9.10564
G1 X126.888 Y107.348 E9.12578
G1 X126.91 Y107.403 E9.12775
G1 X127.086 Y107.859 E9.14401
G1 X127.237 Y108.376 E9.16192
G1 X127.51 Y109.726 E9.20773
G1 X127.691 Y110.58 E9.23677
G1 X127.707 Y110.657 E9.23939
G1 X127.761 Y110.947 E9.2492
G1 X127.815 Y111.477 E9.26692
G1 X127.829 Y112.281 E9.29366
G1 X127.829 Y112.978 E9.31684
G1 X127.819 Y113.708 E9.34113
G1 X127.772 Y114.211 E9.35793
G1 X127.622 Y114.77 E9.37718
G1 X126.77 Y117.084 E9.45919
G1 X126.558 Y117.543 E9.47601
G1 X126.277 Y117.963 E9.49282
G1 X126.059 Y118.211 E9.5038
G1 X125.944 Y118.329 E9.50928
G1 X125.563 Y118.662 E9.52611
G1 X125.135 Y118.931 E9.54292
G1 X124.67 Y119.13 E9.55975
G1 X124.18 Y119.252 E9.57654
G1 X123.709 Y119.295 E9.59227
G1 X123.152 Y119.305 E9.6108
G1 X123.095 Y119.306 E9.6127
G1 X120.264 Y119.306 E9.70686
G1 X119.566 Y119.296 E9.73007
G1 X119.063 Y119.249 E9.74688
G1 X118.573 Y119.123 E9.7637
G1 X118.109 Y118.921 E9.78054
G1 X117.683 Y118.649 E9.79735
G1 X117.144 Y118.133 E9.82216
G1 X116.842 Y117.767 E9.83795
G1 X116.698 Y117.579 E9.84582
G1 X115.451 Y115.817 E9.91762
G1 X113.823 Y113.648 E10.00782
G1 X113.281 Y112.947 E10.03729
G1 X112.949 Y112.417 E10.05809
G1 X112.698 Y111.913 E10.07682
G1 X112.676 Y111.868 E10.07849
G1 X112.482 Y111.463 E10.09342
G1 X112.467 Y111.431 E10.0946
G1 X112.046 Y110.526 E10.1278
G1 X111.869 Y110.052 E10.14462
G1 X111.77 Y109.556 E10.16145
G1 X111.748 Y109.244 E10.17185
G1 X111.736 Y108.683 E10.19051
G1 X111.735 Y108.626 E10.19241
G1 X111.722 Y104.818 E10.31906
G1 X111.722 Y104.768 E10.32073
G1 X111.729 Y104.189 E10.33999
G1 X111.746 Y103.898 E10.34968
G1 X111.765 Y103.715 E10.3558
G1 X111.857 Y103.217 E10.37264
G1 X112.026 Y102.741 E10.38944
G1 X112.268 Y102.297 E10.40626
G1 X112.576 Y101.897 E10.42305
G1 F1500 E9.42305
G0 F3600 X114.276 Y109.339
G0 X116 Y110.04
;TYPE:SUPPORT
G1 F1500 E10.42305
G1 X116.577 Y110.024 E10.44225
G1 X117.391 Y110.01 E10.46933
G1 X122.437 Y110.006 E10.63716
G1 X123.081 Y109.362 E10.66745
G1 X123.081 Y109.305 E10.66935
G1 X123.548 Y109.305 E10.68488
G1 X123.646 Y109.206 E10.68951
G1 X123.911 Y109.206 E10.69833
G1 X123.911 Y111.146 E10.76285
G1 X124.196 Y111.579 E10.78009
G1 X124.429 Y111.68 E10.78854
G1 X124.429 Y113.54 E10.8504
G1 X123.862 Y113.777 E10.87084
G1 X123.574 Y114.21 E10.88814
G1 X123.574 Y115.906 E10.94455
G1 X119.686 Y115.906 E11.07386
G1 X119.686 Y114.3 E11.12728
G1 X119.399 Y113.867 E11.14456
G1 X118.453 Y113.468 E11.17871
G1 X118.453 Y111.305 E11.25065
G1 X118.054 Y110.906 E11.26942
G1 X116 Y110.906 E11.33773
G1 X116 Y110.04 E11.36654
G0 F3600 X117.348 Y110.21
G1 F1500 X117.348 Y110.706 E11.38303
G0 F3600 X118.653 Y112.014
G1 F1500 X124.229 Y112.014 E11.56849
G0 F3600 X122.682 Y110.044
G1 F1500 X122.682 Y115.706 E11.75681
G0 F3600 X123.374 Y114.681
G1 F1500 X119.886 Y114.681 E11.87282
G0 F3600 X120.015 Y115.706
G1 F1500 X120.015 Y110.207 E12.05572
G1 F1500 E11.05572
;MESH:Body18.stl
G0 F3600 X120.014 Y108.507
G0 X121.51 Y104.581
G0 X121.58 Y104.51
;TYPE:WALL-INNER
G1 F1500 E12.05572
G1 X121.58 Y104.71 E12.06237
G1 X121.58 Y104.711 E12.0624
G1 X121.581 Y108.506 E12.18863
G1 X117.369 Y108.51 E12.32872
G1 X116.536 Y108.524 E12.35643
G1 X115.739 Y108.548 E12.38295
G1 X115.535 Y108.554 E12.38974
G1 X115.535 Y108.35 E12.39409
G1 X115.521 Y104.615 E12.51832
G1 X116.701 Y104.583 E12.55758
G1 X118.481 Y104.547 E12.6168
G1 X120.27 Y104.521 E12.67631
G1 X121.379 Y104.511 E12.71319
G1 X121.38 Y104.51 E12.71324
G1 X121.58 Y104.51 E12.71755
G0 F3600 X121.779 Y104.107
;TYPE:WALL-OUTER
G1 F1500 X121.78 Y104.106 E12.71759
G1 X121.98 Y104.106 E12.72425
G1 X121.98 Y104.306 E12.72855
G1 X121.98 Y104.307 E12.72859
G1 X121.981 Y108.906 E12.88155
G1 X117.373 Y108.91 E13.03481
G1 X116.545 Y108.924 E13.06236
G1 X115.722 Y108.947 E13.08974
G1 X115.342 Y108.962 E13.10239
G1 X115.136 Y108.969 E13.10924
G1 X115.136 Y108.763 E13.11363
G1 X115.12 Y104.226 E13.26454
G1 X116.69 Y104.183 E13.31677
G1 X118.473 Y104.147 E13.37609
G1 X120.264 Y104.121 E13.43566
