;FLAVOR:Marlin
;TIME:1297
;Filament used: 0m, 0.966151m
;Layer height: 0.2
;MINX:104.769
;MINY:86.62
;MINZ:0.2
;MAXX:135.323
;MAXY:133.469
;MAXZ:19.2
;Generated with Cura_SteamEngine 4.4.1
T1
M140 S65
M105
M190 S65
M104 S200
M105
M109 S200
M82 ;absolute extrusion mode
G28 ;Home
G1 Z15.0 F6000 ;Move the platform down 15mm
;Prime the extruder
G92 E0
G1 F200 E3
G92 E0
G92 E0
t1
G92 E0
G1 F1500 E-1
;LAYER_COUNT:96
;LAYER:0
M106 S255
G0 F3600 X105.844 Y96.758 Z0.2
;TYPE:SKIRT
G1 F1500 E0
G1 X106.385 Y96.251 E0.02466
G1 X107.21 Y95.611 E0.05939
G1 X107.259 Y95.574 E0.06143
G1 X107.559 Y95.348 E0.07392
G1 X109.704 Y93.642 E0.16508
G1 X111.746 Y91.919 E0.25394
G1 X113.788 Y90.096 E0.34499
G1 X115.274 Y88.673 E0.41342
G1 X115.3 Y88.648 E0.41462
G1 X116.306 Y87.702 E0.46055
G1 X116.744 Y87.345 E0.47934
G1 X117.228 Y87.053 E0.49814
G1 X117.749 Y86.832 E0.51697
G1 X118.295 Y86.687 E0.53576
G1 X118.856 Y86.62 E0.55455
G1 X119.422 Y86.634 E0.57338
G1 X119.979 Y86.726 E0.59216
G1 X120.518 Y86.897 E0.61096
G1 X121.028 Y87.142 E0.62978
G1 X121.498 Y87.456 E0.64858
G1 X121.919 Y87.833 E0.66738
G1 X122.283 Y88.266 E0.68619
G1 X122.582 Y88.745 E0.70497
G1 X122.838 Y89.343 E0.72661
G1 X123.037 Y89.936 E0.74741
G1 X123.058 Y89.999 E0.74962
G1 X123.955 Y92.826 E0.84827
G1 X123.972 Y92.881 E0.85018
G1 X124.181 Y93.574 E0.87426
G1 X124.301 Y94.096 E0.89207
G1 X124.334 Y94.302 E0.89901
G1 X124.785 Y97 E0.98999
G1 X125.316 Y99.697 E1.08142
G1 X125.904 Y102.295 E1.17001
G1 X126.59 Y104.973 E1.26196
G1 X127.329 Y107.554 E1.35125
G1 X128.15 Y110.136 E1.44137
G1 X129.044 Y112.699 E1.53165
G1 X130.011 Y115.238 E1.62201
G1 X131.046 Y117.743 E1.71216
G1 X132.163 Y120.241 E1.80317
G1 X133.42 Y122.847 E1.89941
G1 X133.587 Y123.248 E1.91385
G1 X133.846 Y123.978 E1.93962
G1 X133.888 Y124.104 E1.94403
G1 X134.939 Y127.414 E2.05954
G1 X134.955 Y127.464 E2.06129
G1 X135.151 Y128.11 E2.08374
G1 X135.276 Y128.661 E2.10253
G1 X135.323 Y129.224 E2.12132
G1 X135.289 Y129.789 E2.14015
G1 X135.177 Y130.343 E2.15895
G1 X134.987 Y130.875 E2.17774
G1 X134.724 Y131.376 E2.19656
G1 X134.394 Y131.834 E2.21533
G1 X134.002 Y132.242 E2.23415
G1 X133.556 Y132.59 E2.25297
G1 X133.066 Y132.871 E2.27175
G1 X132.541 Y133.081 E2.29056
G1 X131.992 Y133.215 E2.30936
G1 X131.219 Y133.27 E2.33513
G1 X130.299 Y133.246 E2.36574
G1 X130.299 Y133.245 E2.36577
G1 X127.592 Y133.2 E2.45582
G1 X124.85 Y133.233 E2.54703
G1 X121.238 Y133.395 E2.66728
G1 X120.055 Y133.469 E2.70671
G1 X119.49 Y133.465 E2.7255
G1 X118.931 Y133.381 E2.7443
G1 X118.371 Y133.212 E2.76376
G1 X118.199 Y133.146 E2.76988
G1 X117.687 Y132.906 E2.78869
G1 X117.213 Y132.597 E2.80751
G1 X116.788 Y132.224 E2.82632
G1 X116.42 Y131.795 E2.84512
G1 X116.116 Y131.319 E2.8639
G1 X115.895 Y130.838 E2.88151
G1 X115.625 Y130.131 E2.90668
G1 X115.604 Y130.074 E2.9087
G1 X107.704 Y108.41 E3.67566
G1 X107.701 Y108.403 E3.67591
G1 X105.226 Y101.574 E3.91751
G1 X105.207 Y101.518 E3.91947
G1 X104.984 Y100.873 E3.94217
G1 X104.837 Y100.327 E3.96098
G1 X104.769 Y99.766 E3.97977
G1 X104.781 Y99.201 E3.99857
G1 X104.872 Y98.643 E4.01737
G1 X105.15 Y97.853 E4.04523
G1 X105.223 Y97.699 E4.0509
G1 X105.5 Y97.206 E4.06971
G1 X105.844 Y96.758 E4.08849
G0 F3600 X106.181 Y96.982
G1 F1500 X106.63 Y96.568 E4.1088
G1 X107.455 Y95.928 E4.14353
G1 X107.499 Y95.894 E4.14538
G1 X107.803 Y95.666 E4.15802
G1 X109.948 Y93.959 E4.2492
G1 X112.024 Y92.207 E4.33955
G1 X114.047 Y90.401 E4.42975
G1 X115.55 Y88.962 E4.49895
G1 X115.574 Y88.939 E4.50006
G1 X116.58 Y87.993 E4.54599
G1 X116.997 Y87.656 E4.56382
G1 X117.459 Y87.385 E4.58164
G1 X117.957 Y87.185 E4.59948
G1 X118.479 Y87.061 E4.61733
G1 X119.013 Y87.016 E4.63515
G1 X119.548 Y87.051 E4.65299
G1 X120.072 Y87.165 E4.67082
G1 X120.573 Y87.356 E4.68866
G1 X121.041 Y87.619 E4.70651
G1 X121.464 Y87.949 E4.72435
G1 X121.833 Y88.338 E4.74219
G1 X122.141 Y88.777 E4.76002
G1 X122.459 Y89.471 E4.78541
G1 X122.658 Y90.064 E4.80622
G1 X122.676 Y90.12 E4.80817
G1 X123.573 Y92.947 E4.90682
G1 X123.589 Y92.997 E4.90857
G1 X123.798 Y93.69 E4.93264
G1 X123.906 Y94.16 E4.94868
G1 X123.935 Y94.34 E4.95475
G1 X124.398 Y97.106 E5.04802
G1 X124.92 Y99.757 E5.13789
G1 X125.52 Y102.41 E5.22836
G1 X126.195 Y105.044 E5.31879
G1 X126.95 Y107.68 E5.40999
G1 X127.774 Y110.273 E5.50049
G1 X128.672 Y112.848 E5.59119
G1 X129.634 Y115.373 E5.68106
G1 X130.693 Y117.935 E5.77327
G1 X131.795 Y120.4 E5.86307
G1 X133.059 Y123.021 E5.95985
G1 X133.21 Y123.381 E5.97284
G1 X133.469 Y124.111 E5.9986
G1 X133.507 Y124.226 E6.00263
G1 X134.558 Y127.536 E6.11814
G1 X134.572 Y127.58 E6.11967
G1 X134.768 Y128.226 E6.14213
G1 X134.885 Y128.749 E6.15995
G1 X134.923 Y129.284 E6.17779
G1 X134.881 Y129.819 E6.19564
G1 X134.76 Y130.341 E6.21346
G1 X134.563 Y130.84 E6.23131
G1 X134.294 Y131.304 E6.24914
G1 X133.959 Y131.723 E6.26699
G1 X133.566 Y132.087 E6.2848
G1 X133.122 Y132.389 E6.30266
G1 X132.639 Y132.622 E6.3205
G1 X132.127 Y132.78 E6.33832
G1 X131.597 Y132.861 E6.35615
G1 X131.229 Y132.87 E6.3684
G1 X130.343 Y132.847 E6.39787
G1 X127.558 Y132.801 E6.49052
G1 X124.829 Y132.834 E6.58129
G1 X121.249 Y132.993 E6.70048
G1 X120.03 Y133.07 E6.7411
G1 X119.494 Y133.064 E6.75893
G1 X118.964 Y132.978 E6.77679
G1 X118.514 Y132.838 E6.79247
G1 X118.342 Y132.772 E6.79859
G1 X117.857 Y132.543 E6.81643
G1 X117.412 Y132.245 E6.83425
G1 X117.015 Y131.883 E6.85211
G1 X116.677 Y131.467 E6.86994
G1 X116.404 Y131.006 E6.88776
G1 X116.269 Y130.695 E6.89904
G1 X115.999 Y129.988 E6.92421
G1 X115.98 Y129.937 E6.92602
G1 X108.08 Y108.273 E7.69298
G1 X108.077 Y108.267 E7.6932
G1 X105.602 Y101.438 E7.93479
G1 X105.585 Y101.387 E7.93658
G1 X105.362 Y100.742 E7.95928
G1 X105.225 Y100.224 E7.9771
G1 X105.166 Y99.691 E7.99494
G1 X105.188 Y99.155 E8.01278
G1 X105.288 Y98.628 E8.03062
G1 X105.511 Y98.024 E8.05204
G1 X105.584 Y97.87 E8.0577
G1 X105.849 Y97.404 E8.07553
G1 X106.181 Y96.982 E8.09339
G0 F3600 X106.515 Y97.21
G1 F1500 X106.876 Y96.884 E8.10957
G1 X107.701 Y96.244 E8.1443
G1 X107.74 Y96.214 E8.14594
G1 X108.03 Y95.996 E8.158
G1 X110.188 Y94.279 E8.24973
G1 X112.303 Y92.494 E8.34178
G1 X114.308 Y90.704 E8.43117
G1 X115.827 Y89.25 E8.50111
G1 X115.848 Y89.231 E8.50205
G1 X116.854 Y88.285 E8.54798
G1 X117.248 Y87.969 E8.56478
G1 X117.688 Y87.719 E8.58161
G1 X118.161 Y87.541 E8.59842
G1 X118.656 Y87.44 E8.61522
G1 X119.162 Y87.418 E8.63207
G1 X119.664 Y87.476 E8.64888
G1 X120.151 Y87.613 E8.6657
G1 X120.61 Y87.824 E8.6825
G1 X121.03 Y88.105 E8.69931
G1 X121.401 Y88.449 E8.71614
G1 X121.713 Y88.847 E8.73296
G1 X121.958 Y89.289 E8.74977
G1 X122.08 Y89.598 E8.76082
G1 X122.279 Y90.191 E8.78162
G1 X122.295 Y90.241 E8.78337
G1 X123.192 Y93.068 E8.88201
G1 X123.206 Y93.112 E8.88355
G1 X123.415 Y93.805 E8.90762
G1 X123.511 Y94.223 E8.92189
G1 X123.54 Y94.407 E8.92808
G1 X123.997 Y97.138 E9.02018
G1 X124.531 Y99.85 E9.11211
G1 X125.13 Y102.5 E9.20248
G1 X125.815 Y105.173 E9.29425
G1 X126.56 Y107.773 E9.38421
G1 X127.401 Y110.421 E9.47662
G1 X128.292 Y112.974 E9.56655
G1 X129.255 Y115.5 E9.65647
G1 X130.329 Y118.102 E9.75009
G1 X131.434 Y120.572 E9.84009
G1 X132.699 Y123.195 E9.93695
G1 X132.833 Y123.515 E9.94849
G1 X133.092 Y124.245 E9.97425
G1 X133.126 Y124.347 E9.97783
G1 X134.177 Y127.657 E10.09333
G1 X134.189 Y127.696 E10.09469
G1 X134.385 Y128.342 E10.11714
G1 X134.493 Y128.836 E10.13396
G1 X134.522 Y129.341 E10.15079
G1 X134.471 Y129.844 E10.1676
G1 X134.342 Y130.332 E10.18439
G1 X134.137 Y130.794 E10.2012
G1 X133.862 Y131.219 E10.21804
G1 X133.524 Y131.594 E10.23483
G1 X133.13 Y131.912 E10.25167
G1 X132.692 Y132.164 E10.26848
G1 X132.219 Y132.343 E10.2853
G1 X131.724 Y132.446 E10.30211
G1 X131.24 Y132.47 E10.31823
G1 X130.35 Y132.447 E10.34784
G1 X127.56 Y132.401 E10.44065
G1 X124.837 Y132.433 E10.53123
G1 X121.207 Y132.595 E10.65208
G1 X120.005 Y132.671 E10.69214
G1 X119.499 Y132.662 E10.70897
G1 X119.002 Y132.575 E10.72575
G1 X118.658 Y132.465 E10.73776
G1 X118.486 Y132.399 E10.74389
G1 X118.029 Y132.181 E10.76073
G1 X117.613 Y131.894 E10.77754
G1 X117.247 Y131.545 E10.79436
G1 X116.941 Y131.143 E10.81117
G1 X116.643 Y130.553 E10.83315
G1 X116.373 Y129.846 E10.85832
G1 X116.356 Y129.8 E10.85995
G1 X108.456 Y108.136 E11.62691
G1 X108.453 Y108.13 E11.62714
G1 X105.978 Y101.301 E11.86873
G1 X105.963 Y101.257 E11.87027
G1 X105.74 Y100.612 E11.89297
G1 X105.613 Y100.122 E11.90981
G1 X105.564 Y99.619 E11.92662
G1 X105.596 Y99.114 E11.94345
G1 X105.707 Y98.621 E11.96026
G1 X105.872 Y98.195 E11.97545
G1 X105.945 Y98.041 E11.98112
G1 X106.197 Y97.603 E11.99793
G1 X106.515 Y97.21 E12.01474
G0 F3600 X108.971 Y99.568
;TYPE:SUPPORT
G1 F1500 X109.287 Y99.442 E12.02605
G1 X110.255 Y99.022 E12.06115
G1 X110.347 Y98.974 E12.0646
G1 X110.889 Y98.701 E12.08479
G1 X111.858 Y98.148 E12.12189
G1 X112.389 Y97.803 E12.14296
G1 X112.738 Y97.602 E12.15635
G1 X113.987 Y96.614 E12.20932
G1 X114.259 Y96.377 E12.22132
G1 X114.274 Y96.571 E12.22779
G1 X114.333 Y97.168 E12.24774
G1 X114.399 Y97.774 E12.26802
G1 X114.498 Y98.57 E12.2947
G1 X114.667 Y99.788 E12.3356
G1 X114.8 Y100.658 E12.36487
G1 X114.941 Y101.512 E12.39366
G1 X115.18 Y102.881 E12.43988
G1 X115.451 Y104.327 E12.48881
G1 X115.716 Y105.646 E12.53356
G1 X115.987 Y106.92 E12.57688
G1 X116.285 Y108.231 E12.62159
G1 X116.541 Y109.288 E12.65777
G1 X116.818 Y110.359 E12.69456
G1 X117.074 Y111.281 E12.72639
G1 X117.35 Y112.212 E12.75868
G1 X117.631 Y113.112 E12.79004
G1 X117.8 Y113.623 E12.80794
G1 X118.092 Y114.467 E12.83765
G1 X118.288 Y115.015 E12.85701
G1 X118.587 Y115.798 E12.88488
G1 X118.812 Y116.373 E12.90542
G1 X119.108 Y117.096 E12.9314
G1 X119.366 Y117.7 E12.95325
G1 X119.659 Y118.358 E12.97721
G1 X119.944 Y118.984 E13.00008
G1 X120.542 Y120.222 E13.04581
G1 X120.817 Y120.764 E13.06603
G1 X121.215 Y121.526 E13.09462
G1 X121.619 Y122.27 E13.12278
G1 X122.021 Y122.996 E13.15038
G1 X122.429 Y123.707 E13.17764
G1 X122.875 Y124.466 E13.20692
G1 X123.69 Y125.804 E13.25903
G1 X124.117 Y126.484 E13.28574
G1 X124.543 Y127.146 E13.31192
G1 X125.168 Y128.084 E13.34941
G1 X124.605 Y128.127 E13.36819
G1 X123.891 Y128.213 E13.39211
G1 X122.914 Y128.38 E13.42508
G1 X122.501 Y128.335 E13.43889
G1 X119.783 Y129.273 E13.53453
G1 X111.65 Y106.971 E14.32408
G1 X108.969 Y99.573 E14.5858
G1 X108.971 Y99.568 E14.58597
G0 F3600 X109.347 Y99.633
G1 F1500 X109.347 Y100.028 E14.59911
G0 F3600 X109.824 Y101.346
G1 F1500 X114.711 Y101.346 E14.76165
G0 F3600 X114.681 Y101.166
G1 F1500 X114.681 Y114.697 E15.2117
G0 F3600 X114.674 Y114.681
G1 F1500 X117.956 Y114.681 E15.32086
G0 F3600 X117.348 Y112.876
G1 F1500 X117.348 Y122.011 E15.62469
G0 F3600 X117.591 Y122.682
G1 F1500 X121.619 Y122.682 E15.75866
G0 F3600 X122.682 Y124.534
G1 F1500 X122.682 Y128.153 E15.87903
G0 F3600 X123.849 Y128.016
G1 F1500 X119.537 Y128.016 E16.02245
G0 F3600 X120.015 Y128.982
G1 F1500 X120.015 Y119.591 E16.33479
G0 F3600 X120.22 Y120.015
G1 F1500 X116.619 Y120.015 E16.45456
G0 F3600 X115.647 Y117.348
G1 F1500 X118.999 Y117.348 E16.56605
G0 F3600 X117.084 Y112.014
G1 F1500 X113.702 Y112.014 E16.67854
G0 F3600 X112.729 Y109.347
G1 F1500 X116.35 Y109.347 E16.79897
G0 F3600 X115.732 Y106.68
G1 F1500 X111.757 Y106.68 E16.93118
G0 F3600 X112.014 Y107.384
G1 F1500 X112.014 Y98.285 E17.23381
G0 F3600 X111.332 Y98.679
G1 F1500 X114.312 Y98.679 E17.33293
G0 F3600 X115.189 Y104.013
G1 F1500 X110.79 Y104.013 E17.47924
G0 F3600 X118.564 Y125.349
G1 F1500 X123.179 Y125.349 E17.63274
G1 F1500 E16.63274
;MESH:Body4.stl
G0 F3600 X124.457 Y124.567
G0 X129.304 Y125.622
;TYPE:WALL-INNER
G1 F1500 E17.63274
G1 X129.511 Y125.519 E17.64043
G1 X129.581 Y125.74 E17.64521
G1 X130.286 Y127.954 E17.72249
G1 X130.287 Y127.955 E17.72254
G1 X130.399 Y128.312 E17.73498
G1 X130.04 Y128.207 E17.74194
G1 X130.039 Y128.206 E17.74199
G1 X129.751 Y128.12 E17.75198
G1 X129.13 Y127.97 E17.77323
G1 X128.449 Y127.839 E17.7963
G1 X127.715 Y127.732 E17.82097
G1 X126.988 Y127.671 E17.84523
G1 X126.692 Y127.662 E17.85508
G1 X126.483 Y127.352 E17.86752
G1 X125.796 Y126.321 E17.90873
G1 X125.383 Y125.677 E17.93417
G1 X124.966 Y125.016 E17.96017
G1 X124.545 Y124.329 E17.98696
G1 X124.163 Y123.694 E18.01161
G1 X123.725 Y122.95 E18.04033
G1 X123.326 Y122.256 E18.06695
G1 X122.933 Y121.547 E18.09391
G1 X122.538 Y120.818 E18.12149
G1 X122.15 Y120.074 E18.1494
G1 X121.884 Y119.551 E18.16892
G1 X121.3 Y118.341 E18.2136
G1 X121.025 Y117.739 E18.23562
G1 X120.739 Y117.097 E18.25899
G1 X120.491 Y116.514 E18.28006
G1 X120.203 Y115.812 E18.3053
G1 X119.985 Y115.256 E18.32516
G1 X119.694 Y114.491 E18.35239
G1 X119.506 Y113.97 E18.37081
G1 X119.219 Y113.139 E18.40005
G1 X119.058 Y112.65 E18.41717
G1 X118.784 Y111.772 E18.44776
G1 X118.514 Y110.863 E18.4793
G1 X118.265 Y109.966 E18.51027
G1 X117.997 Y108.926 E18.54599
G1 X117.745 Y107.884 E18.58164
G1 X117.451 Y106.596 E18.62558
G1 X117.184 Y105.339 E18.66832
G1 X116.922 Y104.038 E18.71246
G1 X116.656 Y102.611 E18.76074
G1 X116.419 Y101.259 E18.8064
G1 X116.281 Y100.42 E18.83468
G1 X116.151 Y99.569 E18.86331
G1 X115.984 Y98.371 E18.90354
G1 X115.889 Y97.597 E18.92948
G1 X115.767 Y96.432 E18.96844
G1 X115.7 Y95.584 E18.99673
G1 X116.116 Y95.163 E19.01642
G1 X116.718 Y94.516 E19.04581
G1 X117.324 Y93.82 E19.0765
G1 X117.762 Y93.289 E19.0994
G1 X118.342 Y92.56 E19.13038
G1 X118.602 Y92.211 E19.14486
G1 X118.834 Y91.899 E19.15779
G1 X118.951 Y92.269 E19.16495
G1 X119.696 Y94.613 E19.24675
G1 X119.756 Y94.805 E19.25344
G1 X119.723 Y95.263 E19.26872
G1 X119.692 Y95.773 E19.28571
G1 X119.662 Y96.382 E19.30599
G1 X119.628 Y97.24 E19.33455
G1 X119.615 Y97.859 E19.35514
G1 X119.607 Y98.804 E19.38658
G1 X119.616 Y99.606 E19.41325
G1 X119.635 Y100.437 E19.4409
G1 X119.685 Y101.594 E19.47942
G1 X119.717 Y102.158 E19.4982
G1 X119.801 Y103.3 E19.53629
G1 X119.852 Y103.885 E19.55582
G1 X119.939 Y104.743 E19.5845
G1 X120.021 Y105.446 E19.60805
G1 X120.192 Y106.707 E19.65037
G1 X120.399 Y107.967 E19.69284
G1 X120.64 Y109.22 E19.73528
G1 X120.903 Y110.386 E19.77503
G1 X121.093 Y111.146 E19.80109
G1 X121.292 Y111.873 E19.82616
G1 X121.504 Y112.586 E19.8509
G1 X121.725 Y113.282 E19.87519
G1 X121.961 Y113.962 E19.89913
G1 X122.206 Y114.624 E19.92261
G1 X122.458 Y115.264 E19.94548
G1 X122.721 Y115.892 E19.96813
G1 X122.992 Y116.503 E19.99036
G1 X123.268 Y117.097 E20.01214
G1 X123.552 Y117.679 E20.03368
G1 X123.802 Y118.165 E20.05186
G1 X124.121 Y118.762 E20.07437
G1 X124.449 Y119.346 E20.09665
G1 X124.771 Y119.895 E20.11782
G1 X125.098 Y120.428 E20.13862
G1 X125.431 Y120.951 E20.15924
G1 X125.77 Y121.464 E20.17969
G1 X126.08 Y121.914 E20.19787
G1 X126.437 Y122.418 E20.21841
G1 X126.803 Y122.914 E20.23891
G1 X127.174 Y123.395 E20.25912
G1 X127.547 Y123.866 E20.2791
G1 X127.925 Y124.329 E20.29898
G1 X128.304 Y124.784 E20.31867
G1 X129.122 Y125.713 E20.35984
G1 X129.304 Y125.622 E20.36661
G0 F3600 X129.219 Y125.218
;TYPE:WALL-OUTER
G1 F1500 X129.543 Y125.056 E20.37866
G1 X129.751 Y124.953 E20.38638
G1 X129.821 Y125.175 E20.39118
G1 X130.912 Y128.608 E20.51099
G1 X130.978 Y128.816 E20.51824
G1 X131.021 Y128.951 E20.52296
G1 X130.808 Y128.871 E20.5262
G1 X130.601 Y128.801 E20.53166
G1 X130.318 Y128.705 E20.5416
G1 X129.647 Y128.506 E20.56488
G1 X129.045 Y128.361 E20.58548
G1 X128.382 Y128.234 E20.60793
G1 X127.669 Y128.13 E20.63189
G1 X126.965 Y128.07 E20.65539
G1 X126.476 Y128.055 E20.67167
G1 X126.15 Y127.574 E20.69099
G1 X125.463 Y126.543 E20.7322
G1 X125.046 Y125.893 E20.75789
G1 X124.625 Y125.225 E20.78415
G1 X124.203 Y124.536 E20.81102
G1 X123.82 Y123.901 E20.83568
G1 X123.38 Y123.153 E20.86455
G1 X122.979 Y122.455 E20.89132
G1 X122.583 Y121.741 E20.91848
G1 X122.186 Y121.008 E20.9462
G1 X121.795 Y120.259 E20.97431
G1 X121.527 Y119.732 E20.99397
G1 X120.94 Y118.515 E21.03891
G1 X120.661 Y117.905 E21.06122
G1 X120.374 Y117.26 E21.0847
G1 X120.123 Y116.671 E21.106
G1 X119.833 Y115.964 E21.13141
G1 X119.613 Y115.402 E21.15149
G1 X119.32 Y114.633 E21.17886
G1 X119.129 Y114.101 E21.19766
G1 X118.841 Y113.27 E21.22691
G1 X118.678 Y112.775 E21.24424
G1 X118.402 Y111.891 E21.27504
G1 X118.131 Y110.977 E21.30675
G1 X117.88 Y110.073 E21.33796
G1 X117.608 Y109.02 E21.37413
G1 X117.356 Y107.978 E21.40978
