;FLAVOR:Marlin
;TIME:684
;Filament used: 0m, 0.579184m
;Layer height: 0.2
;MINX:106.705
;MINY:88.97
;MINZ:0.2
;MAXX:133.303
;MAXY:131.047
;MAXZ:14.4
;Generated with Cura_SteamEngine 4.4.1
T1
M140 S65
M105
M190 S65
M104 S200
M105
M109 S200
M82 ;absolute extrusion mode
G28 ;Home
G1 Z15.0 F6000 ;Move the platform down 15mm
;Prime the extruder
G92 E0
G1 F200 E3
G92 E0
G92 E0
t1
G92 E0
G1 F1500 E-1
;LAYER_COUNT:72
;LAYER:0
M106 S255
G0 F3600 X107.893 Y97.738 Z0.2
;TYPE:SKIRT
G1 F1500 E0
G1 X108.137 Y97.517 E0.01095
G1 X108.348 Y97.341 E0.02009
G1 X108.395 Y97.302 E0.02212
G1 X110.141 Y95.89 E0.09681
G1 X112.198 Y94.13 E0.18685
G1 X114.186 Y92.329 E0.27607
G1 X115.914 Y90.657 E0.35604
G1 X115.941 Y90.632 E0.35726
G1 X116.538 Y90.065 E0.38465
G1 X116.975 Y89.705 E0.40348
G1 X117.457 Y89.411 E0.42226
G1 X117.977 Y89.188 E0.44108
G1 X118.523 Y89.04 E0.45989
G1 X119.084 Y88.97 E0.4787
G1 X119.649 Y88.981 E0.49749
G1 X120.207 Y89.071 E0.51629
G1 X120.747 Y89.239 E0.5351
G1 X121.258 Y89.481 E0.55391
G1 X121.729 Y89.793 E0.5727
G1 X122.152 Y90.168 E0.5915
G1 X122.518 Y90.599 E0.6103
G1 X122.819 Y91.077 E0.62909
G1 X123.086 Y91.695 E0.65148
G1 X123.292 Y92.31 E0.67306
G1 X123.311 Y92.369 E0.67512
G1 X132.923 Y122.633 E1.73125
G1 X132.939 Y122.683 E1.733
G1 X133.131 Y123.316 E1.755
G1 X133.256 Y123.867 E1.77379
G1 X133.303 Y124.431 E1.79261
G1 X133.269 Y124.995 E1.81141
G1 X133.157 Y125.549 E1.83021
G1 X132.967 Y126.082 E1.84903
G1 X132.704 Y126.582 E1.86782
G1 X132.374 Y127.041 E1.88662
G1 X131.981 Y127.448 E1.90544
G1 X131.536 Y127.796 E1.92422
G1 X131.152 Y128.024 E1.93908
G1 X130.467 Y128.381 E1.96477
G1 X130.397 Y128.417 E1.96739
G1 X128.24 Y129.488 E2.04749
G1 X128.192 Y129.511 E2.04926
G1 X127.565 Y129.812 E2.07239
G1 X127.039 Y130.02 E2.0912
G1 X126.386 Y130.168 E2.11347
G1 X124.656 Y130.409 E2.17157
G1 X120.959 Y130.998 E2.29608
G1 X120.396 Y131.047 E2.31488
G1 X119.831 Y131.017 E2.3337
G1 X119.277 Y130.907 E2.35248
G1 X118.743 Y130.72 E2.3713
G1 X118.242 Y130.46 E2.39007
G1 X117.781 Y130.131 E2.40891
G1 X117.372 Y129.741 E2.42771
G1 X117.022 Y129.297 E2.44651
G1 X116.738 Y128.808 E2.46532
G1 X116.591 Y128.47 E2.47758
G1 X116.322 Y127.763 E2.50274
G1 X116.283 Y127.656 E2.50653
G1 X116.001 Y126.846 E2.53505
G1 X115.278 Y124.868 E2.6051
G1 X115.277 Y124.865 E2.6052
G1 X110.264 Y111.119 E3.09185
G1 X110.257 Y111.101 E3.09249
G1 X108.839 Y107.151 E3.23208
G1 X108.137 Y105.279 E3.29858
G1 X108.119 Y105.23 E3.30031
G1 X107.347 Y103.086 E3.37611
G1 X107.237 Y102.798 E3.38636
G1 X107.201 Y102.698 E3.38989
G1 X106.926 Y101.916 E3.41747
G1 X106.776 Y101.371 E3.43627
G1 X106.705 Y100.81 E3.45507
G1 X106.714 Y100.245 E3.47387
G1 X106.802 Y99.686 E3.49269
G1 X106.968 Y99.146 E3.51148
G1 X107.209 Y98.634 E3.5303
G1 X107.52 Y98.162 E3.5491
G1 X107.893 Y97.738 E3.56788
G0 F3600 X108.393 Y97.824
G1 F1500 X108.604 Y97.648 E3.57702
G1 X108.647 Y97.613 E3.57887
G1 X110.39 Y96.204 E3.65341
G1 X112.461 Y94.432 E3.74407
G1 X114.482 Y92.601 E3.83477
G1 X116.193 Y90.945 E3.91397
G1 X116.217 Y90.922 E3.91507
G1 X116.814 Y90.355 E3.94246
G1 X117.229 Y90.015 E3.9603
G1 X117.69 Y89.741 E3.97814
G1 X118.187 Y89.539 E3.99598
G1 X118.708 Y89.413 E4.01381
G1 X119.242 Y89.365 E4.03164
G1 X119.778 Y89.398 E4.0495
G1 X120.302 Y89.509 E4.06732
G1 X120.804 Y89.698 E4.08516
G1 X121.273 Y89.958 E4.10299
G1 X121.698 Y90.286 E4.12085
G1 X122.069 Y90.673 E4.13868
G1 X122.379 Y91.111 E4.15653
G1 X122.707 Y91.822 E4.18257
G1 X122.913 Y92.437 E4.20414
G1 X122.93 Y92.49 E4.206
G1 X132.542 Y122.754 E5.26213
G1 X132.556 Y122.799 E5.2637
G1 X132.748 Y123.432 E5.2857
G1 X132.865 Y123.955 E5.30352
G1 X132.903 Y124.49 E5.32136
G1 X132.861 Y125.025 E5.33921
G1 X132.74 Y125.547 E5.35703
G1 X132.543 Y126.046 E5.37488
G1 X132.274 Y126.51 E5.39271
G1 X131.939 Y126.929 E5.41056
G1 X131.545 Y127.293 E5.4284
G1 X130.967 Y127.669 E5.45133
G1 X130.282 Y128.026 E5.47702
G1 X130.219 Y128.058 E5.47937
G1 X128.062 Y129.129 E5.55947
G1 X128.019 Y129.15 E5.56106
G1 X127.392 Y129.451 E5.5842
G1 X126.893 Y129.647 E5.60203
G1 X126.331 Y129.772 E5.62118
G1 X124.588 Y130.015 E5.67971
G1 X120.896 Y130.603 E5.80405
G1 X120.362 Y130.648 E5.82188
G1 X119.827 Y130.613 E5.83971
G1 X119.303 Y130.498 E5.85755
G1 X118.802 Y130.307 E5.87539
G1 X118.334 Y130.044 E5.89324
G1 X117.911 Y129.714 E5.91109
G1 X117.542 Y129.326 E5.9289
G1 X117.235 Y128.886 E5.94674
G1 X116.965 Y128.328 E5.96736
G1 X116.696 Y127.621 E5.99252
G1 X116.661 Y127.525 E5.99592
G1 X116.379 Y126.715 E6.02444
G1 X115.654 Y124.731 E6.0947
G1 X115.653 Y124.728 E6.0948
G1 X110.64 Y110.982 E6.58145
G1 X110.634 Y110.965 E6.58205
G1 X109.233 Y107.063 E6.71994
G1 X108.511 Y105.138 E6.78832
G1 X108.495 Y105.094 E6.78988
G1 X107.697 Y102.879 E6.86819
G1 X107.611 Y102.655 E6.87617
G1 X107.578 Y102.565 E6.87936
G1 X107.303 Y101.783 E6.90693
G1 X107.163 Y101.266 E6.92474
G1 X107.102 Y100.733 E6.94259
G1 X107.12 Y100.197 E6.96042
G1 X107.218 Y99.67 E6.97825
G1 X107.394 Y99.163 E6.9961
G1 X107.642 Y98.687 E7.01395
G1 X107.959 Y98.254 E7.0318
G1 X108.393 Y97.824 E7.05212
G0 F3600 X108.399 Y98.364
G1 F1500 X108.649 Y98.132 E7.06347
G1 X108.86 Y97.956 E7.07261
G1 X108.898 Y97.924 E7.07426
G1 X110.656 Y96.503 E7.14944
G1 X112.726 Y94.731 E7.24007
G1 X114.745 Y92.902 E7.33068
G1 X116.471 Y91.232 E7.41056
G1 X116.492 Y91.212 E7.41152
G1 X117.089 Y90.645 E7.43891
G1 X117.482 Y90.327 E7.45572
G1 X117.92 Y90.074 E7.47255
G1 X118.393 Y89.894 E7.48938
G1 X118.888 Y89.791 E7.5062
G1 X119.393 Y89.767 E7.52301
G1 X119.895 Y89.822 E7.53981
G1 X120.383 Y89.956 E7.55664
G1 X120.843 Y90.165 E7.57344
G1 X121.264 Y90.444 E7.59024
G1 X121.637 Y90.786 E7.60707
G1 X121.951 Y91.183 E7.62391
G1 X122.198 Y91.624 E7.64072
G1 X122.327 Y91.949 E7.65235
G1 X122.533 Y92.564 E7.67392
G1 X122.549 Y92.611 E7.67557
G1 X132.161 Y122.875 E8.73171
G1 X132.173 Y122.915 E8.7331
G1 X132.365 Y123.548 E8.7551
G1 X132.473 Y124.042 E8.77192
G1 X132.502 Y124.547 E8.78874
G1 X132.451 Y125.05 E8.80556
G1 X132.322 Y125.538 E8.82234
G1 X132.117 Y126.001 E8.83919
G1 X131.842 Y126.425 E8.85599
G1 X131.503 Y126.8 E8.87281
G1 X131.11 Y127.118 E8.88962
G1 X130.782 Y127.315 E8.90235
G1 X130.097 Y127.672 E8.92804
G1 X130.041 Y127.7 E8.93012
G1 X127.884 Y128.771 E9.01022
G1 X127.846 Y128.79 E9.01163
G1 X127.219 Y129.091 E9.03477
G1 X126.747 Y129.273 E9.05159
G1 X126.276 Y129.375 E9.06762
G1 X124.569 Y129.613 E9.12495
G1 X120.833 Y130.208 E9.25077
G1 X120.329 Y130.248 E9.26759
G1 X119.825 Y130.208 E9.2844
G1 X119.334 Y130.089 E9.30121
G1 X118.867 Y129.894 E9.31804
G1 X118.437 Y129.628 E9.33486
G1 X118.055 Y129.298 E9.35165
G1 X117.729 Y128.912 E9.36845
G1 X117.468 Y128.479 E9.38527
G1 X117.339 Y128.186 E9.39591
G1 X117.07 Y127.479 E9.42107
G1 X117.039 Y127.393 E9.42411
G1 X116.773 Y126.629 E9.45102
G1 X116.029 Y124.593 E9.52312
G1 X116.029 Y124.591 E9.52318
G1 X111.016 Y110.845 E10.00983
G1 X111.01 Y110.83 E10.01037
G1 X109.592 Y106.88 E10.14996
G1 X108.886 Y104.998 E10.21681
G1 X108.871 Y104.959 E10.2182
G1 X108.073 Y102.744 E10.29651
G1 X107.985 Y102.513 E10.30473
G1 X107.955 Y102.433 E10.30757
G1 X107.68 Y101.651 E10.33514
G1 X107.551 Y101.162 E10.35196
G1 X107.5 Y100.659 E10.36878
G1 X107.529 Y100.154 E10.3856
G1 X107.637 Y99.66 E10.40242
G1 X107.821 Y99.19 E10.41921
G1 X108.078 Y98.754 E10.43604
G1 X108.399 Y98.364 E10.45284
G1 F1500 E9.45284
G0 F3600 X110.637 Y102.379
G0 X113.091 Y102.007
;TYPE:SUPPORT
G1 F1500 E10.45284
G1 X113.526 Y101.751 E10.46963
G1 X114.398 Y101.181 E10.50428
G1 X114.663 Y101.199 E10.51311
G1 X115.288 Y101.264 E10.53401
G1 X116.323 Y101.455 E10.56902
G1 X116.699 Y101.547 E10.58189
G1 X117.401 Y101.795 E10.60666
G1 X117.844 Y102.003 E10.62293
G1 X118.345 Y102.305 E10.64239
G1 X118.835 Y102.723 E10.66381
G1 X119.148 Y103.066 E10.67926
G1 X119.494 Y103.567 E10.69951
G1 X119.77 Y104.063 E10.71839
G1 X119.884 Y104.314 E10.72755
G1 X117.618 Y106.231 E10.82627
G1 X117.641 Y106.825 E10.84605
G1 X119.403 Y108.105 E10.91848
G1 X119.546 Y108.87 E10.94437
G1 X119.97 Y109.659 E10.97416
G1 X119.98 Y109.837 E10.98009
G1 X120.685 Y111.153 E11.02974
G1 X120.899 Y111.706 E11.04946
G1 X121.149 Y112.402 E11.07406
G1 X121.283 Y112.827 E11.08888
G1 X121.656 Y114.507 E11.14612
G1 X122.032 Y115.141 E11.17064
G1 X121.865 Y117.883 E11.26201
G1 X122.291 Y118.286 E11.28151
G1 X123.869 Y118.094 E11.33438
G1 X124.392 Y119.282 E11.37755
G1 X124.623 Y119.779 E11.39578
G1 X124.675 Y120.044 E11.40476
G1 X124.755 Y120.653 E11.42519
G1 X124.766 Y121.108 E11.44033
G1 X124.696 Y121.69 E11.45983
G1 X124.518 Y122.34 E11.48224
G1 X124.275 Y122.856 E11.50121
G1 X124.001 Y123.297 E11.51848
G1 X123.752 Y123.631 E11.53234
G1 X123.467 Y123.964 E11.54692
G1 X123.157 Y124.001 E11.5573
G1 X122.42 Y124.115 E11.5821
G1 X121.737 Y124.241 E11.6052
G1 X120.372 Y122.607 E11.67602
G1 X119.804 Y122.568 E11.69496
G1 X119.134 Y123.173 E11.72498
G1 X118.019 Y120.125 E11.83293
G1 X114.274 Y109.861 E12.19632
G1 X114.147 Y109.436 E12.21108
G1 X113.515 Y107.741 E12.27124
G1 X113.431 Y107.343 E12.28477
G1 X112.44 Y104.834 E12.3745
G1 X112.334 Y104.538 E12.38495
G1 X113.189 Y104.58 E12.41343
G1 X113.574 Y104.121 E12.43335
G1 X113.091 Y102.007 E12.50548
G0 F3600 X114.681 Y101.403
G1 F1500 X114.681 Y110.392 E12.80445
G0 F3600 X114.327 Y109.347
G1 F1500 X119.577 Y109.347 E12.97907
G0 F3600 X120.015 Y110.325
G1 F1500 X120.015 Y122.382 E13.38008
G0 F3600 X119.377 Y122.682
G1 F1500 X119.166 Y122.682 E13.3871
G0 F3600 X120.695 Y122.682
G1 F1500 X124.133 Y122.682 E13.50145
G0 F3600 X122.682 Y123.873
G1 F1500 X122.682 Y118.44 E13.68215
G0 F3600 X121.697 Y117.348
G1 F1500 X117.218 Y117.348 E13.83112
G0 F3600 X117.348 Y117.701
G1 F1500 X117.348 Y101.992 E14.35361
G0 F3600 X119.514 Y104.013
G1 F1500 X113.754 Y104.013 E14.54519
G0 F3600 X113.384 Y106.68
G1 F1500 X117.436 Y106.68 E14.67996
G0 F3600 X115.272 Y112.014
G1 F1500 X120.798 Y112.014 E14.86375
G0 F3600 X121.528 Y114.681
G1 F1500 X116.245 Y114.681 E15.03946
G0 F3600 X118.191 Y120.015
G1 F1500 X124.465 Y120.015 E15.24814
G1 F1500 E14.24814
;MESH:Body13.stl
G0 F3600 X115.448 Y100.372
G0 X115.307 Y99.297
G0 X114.723 Y99.198
;TYPE:WALL-INNER
G1 F1500 E15.24814
G1 X114.543 Y99.223 E15.25418
G1 X114.264 Y99.426 E15.26566
G1 X113.659 Y99.866 E15.29054
G1 X113.58 Y99.923 E15.29378
G1 X113.035 Y100.279 E15.31543
G1 X112.727 Y100.481 E15.32768
G1 X112.396 Y100.675 E15.34044
G1 X111.864 Y100.986 E15.36094
G1 X111.736 Y101.052 E15.36573
G1 X111.567 Y101.139 E15.37205
G1 X111.534 Y101.156 E15.37329
G1 X111.519 Y101.113
G1 X111.432 Y100.877 E15.37918
G1 X111.6 Y100.79 E15.38382
G1 X111.716 Y100.725 E15.38707
G1 X112.248 Y100.424 E15.4021
G1 X112.568 Y100.226 E15.41134
G1 X112.875 Y100.036 E15.42019
G1 X113.414 Y99.676 E15.43603
G1 X113.485 Y99.628 E15.43809
G1 X114.092 Y99.19 E15.45638
G1 X114.357 Y98.984 E15.46465
G1 X114.501 Y98.873 E15.46998
G1 X114.657 Y98.751 E15.47657
G1 X115.224 Y98.279 E15.5011
G1 X115.782 Y97.785 E15.52589
G1 X116.292 Y97.305 E15.54919
G1 X116.822 Y96.779 E15.57402
G1 X117.341 Y96.233 E15.59908
G1 X117.85 Y95.672 E15.62427
G1 X118.314 Y95.137 E15.64782
G1 X118.781 Y94.578 E15.67205
G1 X118.807 Y94.546 E15.67342
G1 X119.072 Y94.215 E15.68753
G1 X119.143 Y94.439 E15.68986
G1 X119.155 Y94.479 E15.69118
G1 X120.796 Y99.648 E15.87156
G1 X120.92 Y100.041 E15.88526
G1 X121.128 Y100.694 E15.90806
G1 X121.3 Y101.234 E15.92691
G1 X121.486 Y101.819 E15.94732
G1 X121.696 Y102.48 E15.97039
G1 X121.699 Y102.492 E15.9708
G1 X128.588 Y124.179 E16.72763
G1 X126.609 Y125.162 E16.80113
G1 X126.179 Y125.376 E16.8171
G1 X125.717 Y125.606 E16.83427
G1 X125.676 Y125.626 E16.83578
G1 X125.577 Y125.627 E16.83908
G1 X125.169 Y125.635 E16.85265
G1 X124.763 Y125.658 E16.86618
G1 X124.457 Y125.676 E16.87637
G1 X124.081 Y125.712 E16.88893
G1 X123.74 Y125.745 E16.90033
G1 X123.4 Y125.791 E16.91174
G1 X123.024 Y125.842 E16.92436
G1 X122.727 Y125.893 E16.93438
G1 X122.216 Y125.983 E16.95164
G1 X122.037 Y126.021 E16.95773
G1 X121.516 Y126.132 E16.97544
G1 X121.372 Y126.166 E16.98037
G1 X120.944 Y126.269 E16.99501
G1 X120.698 Y126.335 E17.00348
G1 X120.594 Y126.05 E17.01357
G1 X120.607 Y126.047
G1 X120.624 Y126.043
G1 X120.871 Y125.981 E17.0188
G1 X121.301 Y125.873 E17.02986
G1 X121.45 Y125.84 E17.03369
G1 X121.973 Y125.723 E17.04717
G1 X122.161 Y125.689 E17.05201
G1 X122.674 Y125.593 E17.06513
G1 X122.978 Y125.546 E17.07289
G1 X123.358 Y125.487 E17.08261
G1 X123.705 Y125.447 E17.09145
G1 X124.051 Y125.406 E17.10029
G1 X124.432 Y125.376 E17.11
G1 X124.745 Y125.35 E17.118
G1 X125.155 Y125.333 E17.12845
G1 X125.571 Y125.314 E17.13915
G1 X126.045 Y125.108 E17.15268
G1 X126.422 Y124.81 E17.16667
G1 X126.667 Y124.617 E17.17704
G1 X127.096 Y124.155 E17.19801
G1 X127.37 Y123.665 E17.21668
G1 X127.474 Y123.191 E17.23282
G1 X127.433 Y122.633 E17.25143
G1 X127.259 Y122.017 E17.27272
G1 X126.966 Y121.286 E17.29892
G1 X126.718 Y120.73 E17.31916
G1 X125.757 Y118.661 E17.39504
G1 X125.211 Y117.422 E17.44007
G1 X124.846 Y116.544 E17.4717
G1 X124.508 Y115.694 E17.50212
G1 X124.053 Y114.478 E17.54531
G1 X123.631 Y113.241 E17.58878
G1 X123.252 Y112.024 E17.63117
G1 X122.924 Y110.867 E17.67117
G1 X122.62 Y109.663 E17.71247
G1 X122.346 Y108.462 E17.75344
G1 X122.101 Y107.254 E17.79444
G1 X121.871 Y106.006 E17.83665
G1 X121.569 Y104.17 E17.89853
G1 X121.443 Y103.367 E17.92557
G1 X121.319 Y102.613 E17.95098
G1 X121.317 Y102.601 E17.95139
G1 X121.191 Y101.913 E17.97208
G1 X121.063 Y101.31 E17.98655
G1 X120.914 Y100.763 E17.99777
G1 X120.66 Y100.124 E18.012
G1 X120.423 Y99.786 E18.02357
G1 X120.282 Y99.585 E18.03173
G1 X119.754 Y99.204 E18.05339
G1 X119.079 Y98.981 E18.07703
G1 X118.224 Y98.892 E18.10563
G1 X117.585 Y98.896 E18.12688
G1 X117.03 Y98.925 E18.14536
G1 X116.298 Y98.993 E18.16981
G1 X115.278 Y99.118 E18.20399
G1 X114.723 Y99.198 E18.22264
G0 F3600 X114.698 Y99.605
;TYPE:WALL-OUTER
G1 F1500 X113.808 Y100.252 E18.25924
G1 X112.945 Y100.817 E18.29355
G1 X112.047 Y101.342 E18.32815
G1 X111.514 Y101.616 E18.34808
G1 X111.313 Y101.72 E18.35561
G1 X111.236 Y101.507 E18.36031
G1 X110.935 Y100.682 E18.38951
G1 X111.41 Y100.438 E18.40728
G1 X112.044 Y100.08 E18.43149
G1 X112.659 Y99.7 E18.45554
G1 X113.257 Y99.3 E18.47947
G1 X113.852 Y98.87 E18.50388
G1 X114.406 Y98.439 E18.52723
G1 X114.964 Y97.975 E18.55137
G1 X115.512 Y97.49 E18.57571
G1 X116.014 Y97.017 E18.59865
G1 X116.536 Y96.499 E18.62311
G1 X117.048 Y95.961 E18.64781
G1 X117.551 Y95.407 E18.6727
G1 X118.009 Y94.878 E18.69597
G1 X118.497 Y94.293 E18.72131
G1 X118.938 Y93.741 E18.74481
G1 X118.979 Y93.689 E18.74701
G1 X119.223 Y93.372 E18.76031
G1 X119.292 Y93.589 E18.76237
G1 X119.312 Y93.652 E18.76439
G1 X119.418 Y93.985 E18.77601
G1 X129.073 Y124.385 E19.83689
G1 X125.773 Y126.024 E19.95944
G1 X125.184 Y126.035 E19.97903
G1 X124.487 Y126.075 E20.00226
G1 X123.786 Y126.142 E20.02568
G1 X123.085 Y126.237 E20.04921
G1 X122.292 Y126.376 E20.07598
G1 X121.604 Y126.522 E20.09938
G1 X121.043 Y126.657 E20.11857
G1 X120.448 Y126.817 E20.13906
G1 X120.144 Y125.984 E20.16855
G1 X120.143 Y125.983 E20.1686
G1 X120.07 Y125.781 E20.17574
G1 X120.278 Y125.724 E20.18028
G1 X120.51 Y125.659 E20.18829
G1 X121.204 Y125.485 E20.21209
G1 X121.897 Y125.331 E20.2357
G1 X122.606 Y125.199 E20.25969
G1 X123.307 Y125.091 E20.28328
G1 X124.019 Y125.007 E20.30713
G1 X124.722 Y124.95 E20.33058
G1 X125.48 Y124.918 E20.35582
G1 X125.838 Y124.762 E20.36881
G1 X126.395 Y124.322 E20.39242
G1 X126.77 Y123.918 E20.41075
G1 X126.992 Y123.521 E20.42588
G1 X127.071 Y123.162 E20.4381
G1 X127.037 Y122.703 E20.45341
G1 X126.88 Y122.146 E20.47266
G1 X126.598 Y121.442 E20.49788
G1 X126.354 Y120.896 E20.51777
G1 X125.394 Y118.829 E20.59358
G1 X124.845 Y117.583 E20.63886
G1 X124.474 Y116.692 E20.67096
G1 X124.136 Y115.842 E20.70139
G1 X123.678 Y114.618 E20.74485
G1 X123.252 Y113.37 E20.78872
G1 X122.87 Y112.143 E20.83146
G1 X122.539 Y110.976 E20.8718
G1 X122.232 Y109.761 E20.91348
G1 X121.956 Y108.551 E20.95476
G1 X121.709 Y107.334 E20.99607
G1 X121.477 Y106.071 E21.03878
G1 X121.174 Y104.235 E21.10067
G1 X121.048 Y103.43 E21.12777
G1 X120.923 Y102.669 E21.15342
G1 X120.799 Y101.991 E21.17634
